%
(G-code output for Bezier Surface generated from given 4x4 matrix)
(Generated by HARISHKUMAR LAXMIKANT GAJAKOSH)
(As a part of COMPUTER INTEGRATED MANUFACTURING Project)
(Guided By Prof RAKESH LINGAM
(Creation date: 22-May-2022 21:59:42)
(Spindle Speed	= 12000 RPM)
(Tool	= 1)
N1 G90
N2 G21
N3 	G00 	X1.00000 	Y5.00000 	Z2.50000 	F100
N4 	G01 	X1.00000 	Y5.00000 	Z1.00000
N5 	G01 	X1.54119 	Y5.00000 	Z1.11525
N6 	G01 	X2.08474 	Y5.00000 	Z1.22118
N7 	G01 	X2.63058 	Y5.00000 	Z1.31810
N8 	G01 	X3.17869 	Y5.00000 	Z1.40627
N9 	G01 	X3.72900 	Y5.00000 	Z1.48600
N10 	G01 	X4.28147 	Y5.00000 	Z1.55757
N11 	G01 	X4.83606 	Y5.00000 	Z1.62126
N12 	G01 	X5.39270 	Y5.00000 	Z1.67738
N13 	G01 	X5.95137 	Y5.00000 	Z1.72619
N14 	G01 	X6.51200 	Y5.00000 	Z1.76800
N15 	G01 	X7.07455 	Y5.00000 	Z1.80309
N16 	G01 	X7.63898 	Y5.00000 	Z1.83174
N17 	G01 	X8.20522 	Y5.00000 	Z1.85426
N18 	G01 	X8.77325 	Y5.00000 	Z1.87091
N19 	G01 	X9.34300 	Y5.00000 	Z1.88200
N20 	G01 	X9.91443 	Y5.00000 	Z1.88781
N21 	G01 	X10.48750 	Y5.00000 	Z1.88862
N22 	G01 	X11.06214 	Y5.00000 	Z1.88474
N23 	G01 	X11.63833 	Y5.00000 	Z1.87643
N24 	G01 	X12.21600 	Y5.00000 	Z1.86400
N25 	G01 	X12.79511 	Y5.00000 	Z1.84773
N26 	G01 	X13.37562 	Y5.00000 	Z1.82790
N27 	G01 	X13.95746 	Y5.00000 	Z1.80482
N28 	G01 	X14.54061 	Y5.00000 	Z1.77875
N29 	G01 	X15.12500 	Y5.00000 	Z1.75000
N30 	G01 	X15.71059 	Y5.00000 	Z1.71885
N31 	G01 	X16.29734 	Y5.00000 	Z1.68558
N32 	G01 	X16.88518 	Y5.00000 	Z1.65050
N33 	G01 	X17.47409 	Y5.00000 	Z1.61387
N34 	G01 	X18.06400 	Y5.00000 	Z1.57600
N35 	G01 	X18.65487 	Y5.00000 	Z1.53717
N36 	G01 	X19.24666 	Y5.00000 	Z1.49766
N37 	G01 	X19.83930 	Y5.00000 	Z1.45778
N38 	G01 	X20.43277 	Y5.00000 	Z1.41779
N39 	G01 	X21.02700 	Y5.00000 	Z1.37800
N40 	G01 	X21.62195 	Y5.00000 	Z1.33869
N41 	G01 	X22.21758 	Y5.00000 	Z1.30014
N42 	G01 	X22.81382 	Y5.00000 	Z1.26266
N43 	G01 	X23.41065 	Y5.00000 	Z1.22651
N44 	G01 	X24.00800 	Y5.00000 	Z1.19200
N45 	G01 	X24.60583 	Y5.00000 	Z1.15941
N46 	G01 	X25.20410 	Y5.00000 	Z1.12902
N47 	G01 	X25.80274 	Y5.00000 	Z1.10114
N48 	G01 	X26.40173 	Y5.00000 	Z1.07603
N49 	G01 	X27.00100 	Y5.00000 	Z1.05400
N50 	G01 	X27.60051 	Y5.00000 	Z1.03533
N51 	G01 	X28.20022 	Y5.00000 	Z1.02030
N52 	G01 	X28.80006 	Y5.00000 	Z1.00922
N53 	G01 	X29.40001 	Y5.00000 	Z1.00235
N54 	G01 	X30.00000 	Y5.00000 	Z1.00000

N55 	G01 	X30.00000 	Y5.28079 	Z1.02782
N56 	G01 	X29.40001 	Y5.28079 	Z1.03012
N57 	G01 	X28.80006 	Y5.28079 	Z1.03687
N58 	G01 	X28.20022 	Y5.28079 	Z1.04779
N59 	G01 	X27.60051 	Y5.28079 	Z1.06260
N60 	G01 	X27.00100 	Y5.28079 	Z1.08100
N61 	G01 	X26.40173 	Y5.28079 	Z1.10271
N62 	G01 	X25.80274 	Y5.28079 	Z1.12745
N63 	G01 	X25.20410 	Y5.28079 	Z1.15494
N64 	G01 	X24.60583 	Y5.28079 	Z1.18489
N65 	G01 	X24.00800 	Y5.28079 	Z1.21702
N66 	G01 	X23.41065 	Y5.28079 	Z1.25105
N67 	G01 	X22.81382 	Y5.28079 	Z1.28668
N68 	G01 	X22.21758 	Y5.28079 	Z1.32364
N69 	G01 	X21.62195 	Y5.28079 	Z1.36164
N70 	G01 	X21.02700 	Y5.28079 	Z1.40040
N71 	G01 	X20.43277 	Y5.28079 	Z1.43964
N72 	G01 	X19.83930 	Y5.28079 	Z1.47906
N73 	G01 	X19.24666 	Y5.28079 	Z1.51839
N74 	G01 	X18.65487 	Y5.28079 	Z1.55734
N75 	G01 	X18.06400 	Y5.28079 	Z1.59563
N76 	G01 	X17.47409 	Y5.28079 	Z1.63298
N77 	G01 	X16.88518 	Y5.28079 	Z1.66909
N78 	G01 	X16.29734 	Y5.28079 	Z1.70370
N79 	G01 	X15.71059 	Y5.28079 	Z1.73650
N80 	G01 	X15.12500 	Y5.28079 	Z1.76722
N81 	G01 	X14.54061 	Y5.28079 	Z1.79558
N82 	G01 	X13.95746 	Y5.28079 	Z1.82129
N83 	G01 	X13.37562 	Y5.28079 	Z1.84406
N84 	G01 	X12.79511 	Y5.28079 	Z1.86361
N85 	G01 	X12.21600 	Y5.28079 	Z1.87967
N86 	G01 	X11.63833 	Y5.28079 	Z1.89194
N87 	G01 	X11.06214 	Y5.28079 	Z1.90014
N88 	G01 	X10.48750 	Y5.28079 	Z1.90398
N89 	G01 	X9.91443 	Y5.28079 	Z1.90319
N90 	G01 	X9.34300 	Y5.28079 	Z1.89747
N91 	G01 	X8.77325 	Y5.28079 	Z1.88655
N92 	G01 	X8.20522 	Y5.28079 	Z1.87015
N93 	G01 	X7.63898 	Y5.28079 	Z1.84796
N94 	G01 	X7.07455 	Y5.28079 	Z1.81972
N95 	G01 	X6.51200 	Y5.28079 	Z1.78514
N96 	G01 	X5.95137 	Y5.28079 	Z1.74394
N97 	G01 	X5.39270 	Y5.28079 	Z1.69582
N98 	G01 	X4.83606 	Y5.28079 	Z1.64051
N99 	G01 	X4.28147 	Y5.28079 	Z1.57772
N100 	G01 	X3.72900 	Y5.28079 	Z1.50718
N101 	G01 	X3.17869 	Y5.28079 	Z1.42858
N102 	G01 	X2.63058 	Y5.28079 	Z1.34166
N103 	G01 	X2.08474 	Y5.28079 	Z1.24612
N104 	G01 	X1.54119 	Y5.28079 	Z1.14169
N105 	G01 	X1.00000 	Y5.28079 	Z1.02808

N106 	G01 	X1.00000 	Y5.56158 	Z1.05614
N107 	G01 	X1.54119 	Y5.56158 	Z1.16809
N108 	G01 	X2.08474 	Y5.56158 	Z1.27099
N109 	G01 	X2.63058 	Y5.56158 	Z1.36512
N110 	G01 	X3.17869 	Y5.56158 	Z1.45076
N111 	G01 	X3.72900 	Y5.56158 	Z1.52819
N112 	G01 	X4.28147 	Y5.56158 	Z1.59769
N113 	G01 	X4.83606 	Y5.56158 	Z1.65954
N114 	G01 	X5.39270 	Y5.56158 	Z1.71401
N115 	G01 	X5.95137 	Y5.56158 	Z1.76140
N116 	G01 	X6.51200 	Y5.56158 	Z1.80198
N117 	G01 	X7.07455 	Y5.56158 	Z1.83602
N118 	G01 	X7.63898 	Y5.56158 	Z1.86382
N119 	G01 	X8.20522 	Y5.56158 	Z1.88565
N120 	G01 	X8.77325 	Y5.56158 	Z1.90178
N121 	G01 	X9.34300 	Y5.56158 	Z1.91251
N122 	G01 	X9.91443 	Y5.56158 	Z1.91810
N123 	G01 	X10.48750 	Y5.56158 	Z1.91885
N124 	G01 	X11.06214 	Y5.56158 	Z1.91502
N125 	G01 	X11.63833 	Y5.56158 	Z1.90690
N126 	G01 	X12.21600 	Y5.56158 	Z1.89478
N127 	G01 	X12.79511 	Y5.56158 	Z1.87892
N128 	G01 	X13.37562 	Y5.56158 	Z1.85962
N129 	G01 	X13.95746 	Y5.56158 	Z1.83714
N130 	G01 	X14.54061 	Y5.56158 	Z1.81177
N131 	G01 	X15.12500 	Y5.56158 	Z1.78380
N132 	G01 	X15.71059 	Y5.56158 	Z1.75349
N133 	G01 	X16.29734 	Y5.56158 	Z1.72113
N134 	G01 	X16.88518 	Y5.56158 	Z1.68700
N135 	G01 	X17.47409 	Y5.56158 	Z1.65139
N136 	G01 	X18.06400 	Y5.56158 	Z1.61456
N137 	G01 	X18.65487 	Y5.56158 	Z1.57680
N138 	G01 	X19.24666 	Y5.56158 	Z1.53839
N139 	G01 	X19.83930 	Y5.56158 	Z1.49962
N140 	G01 	X20.43277 	Y5.56158 	Z1.46075
N141 	G01 	X21.02700 	Y5.56158 	Z1.42207
N142 	G01 	X21.62195 	Y5.56158 	Z1.38386
N143 	G01 	X22.21758 	Y5.56158 	Z1.34640
N144 	G01 	X22.81382 	Y5.56158 	Z1.30998
N145 	G01 	X23.41065 	Y5.56158 	Z1.27486
N146 	G01 	X24.00800 	Y5.56158 	Z1.24133
N147 	G01 	X24.60583 	Y5.56158 	Z1.20967
N148 	G01 	X25.20410 	Y5.56158 	Z1.18017
N149 	G01 	X25.80274 	Y5.56158 	Z1.15309
N150 	G01 	X26.40173 	Y5.56158 	Z1.12872
N151 	G01 	X27.00100 	Y5.56158 	Z1.10734
N152 	G01 	X27.60051 	Y5.56158 	Z1.08924
N153 	G01 	X28.20022 	Y5.56158 	Z1.07468
N154 	G01 	X28.80006 	Y5.56158 	Z1.06395
N155 	G01 	X29.40001 	Y5.56158 	Z1.05733
N156 	G01 	X30.00000 	Y5.56158 	Z1.05511

N157 	G01 	X30.00000 	Y5.84237 	Z1.08187
N158 	G01 	X29.40001 	Y5.84237 	Z1.08399
N159 	G01 	X28.80006 	Y5.84237 	Z1.09045
N160 	G01 	X28.20022 	Y5.84237 	Z1.10096
N161 	G01 	X27.60051 	Y5.84237 	Z1.11525
N162 	G01 	X27.00100 	Y5.84237 	Z1.13305
N163 	G01 	X26.40173 	Y5.84237 	Z1.15407
N164 	G01 	X25.80274 	Y5.84237 	Z1.17805
N165 	G01 	X25.20410 	Y5.84237 	Z1.20470
N166 	G01 	X24.60583 	Y5.84237 	Z1.23375
N167 	G01 	X24.00800 	Y5.84237 	Z1.26493
N168 	G01 	X23.41065 	Y5.84237 	Z1.29796
N169 	G01 	X22.81382 	Y5.84237 	Z1.33255
N170 	G01 	X22.21758 	Y5.84237 	Z1.36845
N171 	G01 	X21.62195 	Y5.84237 	Z1.40536
N172 	G01 	X21.02700 	Y5.84237 	Z1.44301
N173 	G01 	X20.43277 	Y5.84237 	Z1.48114
N174 	G01 	X19.83930 	Y5.84237 	Z1.51945
N175 	G01 	X19.24666 	Y5.84237 	Z1.55768
N176 	G01 	X18.65487 	Y5.84237 	Z1.59555
N177 	G01 	X18.06400 	Y5.84237 	Z1.63278
N178 	G01 	X17.47409 	Y5.84237 	Z1.66910
N179 	G01 	X16.88518 	Y5.84237 	Z1.70423
N180 	G01 	X16.29734 	Y5.84237 	Z1.73790
N181 	G01 	X15.71059 	Y5.84237 	Z1.76982
N182 	G01 	X15.12500 	Y5.84237 	Z1.79973
N183 	G01 	X14.54061 	Y5.84237 	Z1.82734
N184 	G01 	X13.95746 	Y5.84237 	Z1.85238
N185 	G01 	X13.37562 	Y5.84237 	Z1.87458
N186 	G01 	X12.79511 	Y5.84237 	Z1.89366
N187 	G01 	X12.21600 	Y5.84237 	Z1.90934
N188 	G01 	X11.63833 	Y5.84237 	Z1.92134
N189 	G01 	X11.06214 	Y5.84237 	Z1.92940
N190 	G01 	X10.48750 	Y5.84237 	Z1.93322
N191 	G01 	X9.91443 	Y5.84237 	Z1.93255
N192 	G01 	X9.34300 	Y5.84237 	Z1.92710
N193 	G01 	X8.77325 	Y5.84237 	Z1.91659
N194 	G01 	X8.20522 	Y5.84237 	Z1.90076
N195 	G01 	X7.63898 	Y5.84237 	Z1.87931
N196 	G01 	X7.07455 	Y5.84237 	Z1.85199
N197 	G01 	X6.51200 	Y5.84237 	Z1.81850
N198 	G01 	X5.95137 	Y5.84237 	Z1.77858
N199 	G01 	X5.39270 	Y5.84237 	Z1.73195
N200 	G01 	X4.83606 	Y5.84237 	Z1.67834
N201 	G01 	X4.28147 	Y5.84237 	Z1.61746
N202 	G01 	X3.72900 	Y5.84237 	Z1.54904
N203 	G01 	X3.17869 	Y5.84237 	Z1.47280
N204 	G01 	X2.63058 	Y5.84237 	Z1.38848
N205 	G01 	X2.08474 	Y5.84237 	Z1.29579
N206 	G01 	X1.54119 	Y5.84237 	Z1.19445
N207 	G01 	X1.00000 	Y5.84237 	Z1.08419

N208 	G01 	X1.00000 	Y6.12316 	Z1.11221
N209 	G01 	X1.54119 	Y6.12316 	Z1.22074
N210 	G01 	X2.08474 	Y6.12316 	Z1.32049
N211 	G01 	X2.63058 	Y6.12316 	Z1.41172
N212 	G01 	X3.17869 	Y6.12316 	Z1.49470
N213 	G01 	X3.72900 	Y6.12316 	Z1.56971
N214 	G01 	X4.28147 	Y6.12316 	Z1.63702
N215 	G01 	X4.83606 	Y6.12316 	Z1.69691
N216 	G01 	X5.39270 	Y6.12316 	Z1.74964
N217 	G01 	X5.95137 	Y6.12316 	Z1.79548
N218 	G01 	X6.51200 	Y6.12316 	Z1.83472
N219 	G01 	X7.07455 	Y6.12316 	Z1.86761
N220 	G01 	X7.63898 	Y6.12316 	Z1.89444
N221 	G01 	X8.20522 	Y6.12316 	Z1.91548
N222 	G01 	X8.77325 	Y6.12316 	Z1.93099
N223 	G01 	X9.34300 	Y6.12316 	Z1.94125
N224 	G01 	X9.91443 	Y6.12316 	Z1.94654
N225 	G01 	X10.48750 	Y6.12316 	Z1.94712
N226 	G01 	X11.06214 	Y6.12316 	Z1.94327
N227 	G01 	X11.63833 	Y6.12316 	Z1.93525
N228 	G01 	X12.21600 	Y6.12316 	Z1.92335
N229 	G01 	X12.79511 	Y6.12316 	Z1.90783
N230 	G01 	X13.37562 	Y6.12316 	Z1.88896
N231 	G01 	X13.95746 	Y6.12316 	Z1.86703
N232 	G01 	X14.54061 	Y6.12316 	Z1.84229
N233 	G01 	X15.12500 	Y6.12316 	Z1.81503
N234 	G01 	X15.71059 	Y6.12316 	Z1.78551
N235 	G01 	X16.29734 	Y6.12316 	Z1.75400
N236 	G01 	X16.88518 	Y6.12316 	Z1.72079
N237 	G01 	X17.47409 	Y6.12316 	Z1.68614
N238 	G01 	X18.06400 	Y6.12316 	Z1.65032
N239 	G01 	X18.65487 	Y6.12316 	Z1.61360
N240 	G01 	X19.24666 	Y6.12316 	Z1.57626
N241 	G01 	X19.83930 	Y6.12316 	Z1.53858
N242 	G01 	X20.43277 	Y6.12316 	Z1.50081
N243 	G01 	X21.02700 	Y6.12316 	Z1.46324
N244 	G01 	X21.62195 	Y6.12316 	Z1.42614
N245 	G01 	X22.21758 	Y6.12316 	Z1.38977
N246 	G01 	X22.81382 	Y6.12316 	Z1.35442
N247 	G01 	X23.41065 	Y6.12316 	Z1.32035
N248 	G01 	X24.00800 	Y6.12316 	Z1.28783
N249 	G01 	X24.60583 	Y6.12316 	Z1.25714
N250 	G01 	X25.20410 	Y6.12316 	Z1.22856
N251 	G01 	X25.80274 	Y6.12316 	Z1.20234
N252 	G01 	X26.40173 	Y6.12316 	Z1.17877
N253 	G01 	X27.00100 	Y6.12316 	Z1.15811
N254 	G01 	X27.60051 	Y6.12316 	Z1.14065
N255 	G01 	X28.20022 	Y6.12316 	Z1.12664
N256 	G01 	X28.80006 	Y6.12316 	Z1.11637
N257 	G01 	X29.40001 	Y6.12316 	Z1.11010
N258 	G01 	X30.00000 	Y6.12316 	Z1.10811

N259 	G01 	X30.00000 	Y6.40395 	Z1.13382
N260 	G01 	X29.40001 	Y6.40395 	Z1.13566
N261 	G01 	X28.80006 	Y6.40395 	Z1.14171
N262 	G01 	X28.20022 	Y6.40395 	Z1.15173
N263 	G01 	X27.60051 	Y6.40395 	Z1.16543
N264 	G01 	X27.00100 	Y6.40395 	Z1.18255
N265 	G01 	X26.40173 	Y6.40395 	Z1.20282
N266 	G01 	X25.80274 	Y6.40395 	Z1.22597
N267 	G01 	X25.20410 	Y6.40395 	Z1.25174
N268 	G01 	X24.60583 	Y6.40395 	Z1.27985
N269 	G01 	X24.00800 	Y6.40395 	Z1.31004
N270 	G01 	X23.41065 	Y6.40395 	Z1.34204
N271 	G01 	X22.81382 	Y6.40395 	Z1.37558
N272 	G01 	X22.21758 	Y6.40395 	Z1.41040
N273 	G01 	X21.62195 	Y6.40395 	Z1.44621
N274 	G01 	X21.02700 	Y6.40395 	Z1.48276
N275 	G01 	X20.43277 	Y6.40395 	Z1.51978
N276 	G01 	X19.83930 	Y6.40395 	Z1.55700
N277 	G01 	X19.24666 	Y6.40395 	Z1.59415
N278 	G01 	X18.65487 	Y6.40395 	Z1.63096
N279 	G01 	X18.06400 	Y6.40395 	Z1.66717
N280 	G01 	X17.47409 	Y6.40395 	Z1.70250
N281 	G01 	X16.88518 	Y6.40395 	Z1.73668
N282 	G01 	X16.29734 	Y6.40395 	Z1.76946
N283 	G01 	X15.71059 	Y6.40395 	Z1.80055
N284 	G01 	X15.12500 	Y6.40395 	Z1.82970
N285 	G01 	X14.54061 	Y6.40395 	Z1.85663
N286 	G01 	X13.95746 	Y6.40395 	Z1.88108
N287 	G01 	X13.37562 	Y6.40395 	Z1.90277
N288 	G01 	X12.79511 	Y6.40395 	Z1.92144
N289 	G01 	X12.21600 	Y6.40395 	Z1.93682
N290 	G01 	X11.63833 	Y6.40395 	Z1.94864
N291 	G01 	X11.06214 	Y6.40395 	Z1.95664
N292 	G01 	X10.48750 	Y6.40395 	Z1.96053
N293 	G01 	X9.91443 	Y6.40395 	Z1.96007
N294 	G01 	X9.34300 	Y6.40395 	Z1.95497
N295 	G01 	X8.77325 	Y6.40395 	Z1.94498
N296 	G01 	X8.20522 	Y6.40395 	Z1.92981
N297 	G01 	X7.63898 	Y6.40395 	Z1.90921
N298 	G01 	X7.07455 	Y6.40395 	Z1.88290
N299 	G01 	X6.51200 	Y6.40395 	Z1.85062
N300 	G01 	X5.95137 	Y6.40395 	Z1.81210
N301 	G01 	X5.39270 	Y6.40395 	Z1.76706
N302 	G01 	X4.83606 	Y6.40395 	Z1.71525
N303 	G01 	X4.28147 	Y6.40395 	Z1.65638
N304 	G01 	X3.72900 	Y6.40395 	Z1.59021
N305 	G01 	X3.17869 	Y6.40395 	Z1.51645
N306 	G01 	X2.63058 	Y6.40395 	Z1.43483
N307 	G01 	X2.08474 	Y6.40395 	Z1.34510
N308 	G01 	X1.54119 	Y6.40395 	Z1.24697
N309 	G01 	X1.00000 	Y6.40395 	Z1.14019

N310 	G01 	X1.00000 	Y6.68474 	Z1.16812
N311 	G01 	X1.54119 	Y6.68474 	Z1.27312
N312 	G01 	X2.08474 	Y6.68474 	Z1.36960
N313 	G01 	X2.63058 	Y6.68474 	Z1.45782
N314 	G01 	X3.17869 	Y6.68474 	Z1.53803
N315 	G01 	X3.72900 	Y6.68474 	Z1.61052
N316 	G01 	X4.28147 	Y6.68474 	Z1.67554
N317 	G01 	X4.83606 	Y6.68474 	Z1.73335
N318 	G01 	X5.39270 	Y6.68474 	Z1.78422
N319 	G01 	X5.95137 	Y6.68474 	Z1.82842
N320 	G01 	X6.51200 	Y6.68474 	Z1.86621
N321 	G01 	X7.07455 	Y6.68474 	Z1.89785
N322 	G01 	X7.63898 	Y6.68474 	Z1.92361
N323 	G01 	X8.20522 	Y6.68474 	Z1.94376
N324 	G01 	X8.77325 	Y6.68474 	Z1.95856
N325 	G01 	X9.34300 	Y6.68474 	Z1.96826
N326 	G01 	X9.91443 	Y6.68474 	Z1.97315
N327 	G01 	X10.48750 	Y6.68474 	Z1.97348
N328 	G01 	X11.06214 	Y6.68474 	Z1.96951
N329 	G01 	X11.63833 	Y6.68474 	Z1.96151
N330 	G01 	X12.21600 	Y6.68474 	Z1.94975
N331 	G01 	X12.79511 	Y6.68474 	Z1.93450
N332 	G01 	X13.37562 	Y6.68474 	Z1.91600
N333 	G01 	X13.95746 	Y6.68474 	Z1.89454
N334 	G01 	X14.54061 	Y6.68474 	Z1.87037
N335 	G01 	X15.12500 	Y6.68474 	Z1.84376
N336 	G01 	X15.71059 	Y6.68474 	Z1.81497
N337 	G01 	X16.29734 	Y6.68474 	Z1.78427
N338 	G01 	X16.88518 	Y6.68474 	Z1.75192
N339 	G01 	X17.47409 	Y6.68474 	Z1.71819
N340 	G01 	X18.06400 	Y6.68474 	Z1.68334
N341 	G01 	X18.65487 	Y6.68474 	Z1.64764
N342 	G01 	X19.24666 	Y6.68474 	Z1.61135
N343 	G01 	X19.83930 	Y6.68474 	Z1.57474
N344 	G01 	X20.43277 	Y6.68474 	Z1.53806
N345 	G01 	X21.02700 	Y6.68474 	Z1.50159
N346 	G01 	X21.62195 	Y6.68474 	Z1.46559
N347 	G01 	X22.21758 	Y6.68474 	Z1.43032
N348 	G01 	X22.81382 	Y6.68474 	Z1.39605
N349 	G01 	X23.41065 	Y6.68474 	Z1.36305
N350 	G01 	X24.00800 	Y6.68474 	Z1.33157
N351 	G01 	X24.60583 	Y6.68474 	Z1.30188
N352 	G01 	X25.20410 	Y6.68474 	Z1.27425
N353 	G01 	X25.80274 	Y6.68474 	Z1.24894
N354 	G01 	X26.40173 	Y6.68474 	Z1.22622
N355 	G01 	X27.00100 	Y6.68474 	Z1.20635
N356 	G01 	X27.60051 	Y6.68474 	Z1.18959
N357 	G01 	X28.20022 	Y6.68474 	Z1.17622
N358 	G01 	X28.80006 	Y6.68474 	Z1.16649
N359 	G01 	X29.40001 	Y6.68474 	Z1.16066
N360 	G01 	X30.00000 	Y6.68474 	Z1.15901

N361 	G01 	X30.00000 	Y6.96553 	Z1.18368
N362 	G01 	X29.40001 	Y6.96553 	Z1.18512
N363 	G01 	X28.80006 	Y6.96553 	Z1.19069
N364 	G01 	X28.20022 	Y6.96553 	Z1.20012
N365 	G01 	X27.60051 	Y6.96553 	Z1.21316
N366 	G01 	X27.00100 	Y6.96553 	Z1.22953
N367 	G01 	X26.40173 	Y6.96553 	Z1.24899
N368 	G01 	X25.80274 	Y6.96553 	Z1.27127
N369 	G01 	X25.20410 	Y6.96553 	Z1.29611
N370 	G01 	X24.60583 	Y6.96553 	Z1.32324
N371 	G01 	X24.00800 	Y6.96553 	Z1.35242
N372 	G01 	X23.41065 	Y6.96553 	Z1.38337
N373 	G01 	X22.81382 	Y6.96553 	Z1.41584
N374 	G01 	X22.21758 	Y6.96553 	Z1.44956
N375 	G01 	X21.62195 	Y6.96553 	Z1.48428
N376 	G01 	X21.02700 	Y6.96553 	Z1.51973
N377 	G01 	X20.43277 	Y6.96553 	Z1.55565
N378 	G01 	X19.83930 	Y6.96553 	Z1.59179
N379 	G01 	X19.24666 	Y6.96553 	Z1.62788
N380 	G01 	X18.65487 	Y6.96553 	Z1.66365
N381 	G01 	X18.06400 	Y6.96553 	Z1.69886
N382 	G01 	X17.47409 	Y6.96553 	Z1.73324
N383 	G01 	X16.88518 	Y6.96553 	Z1.76652
N384 	G01 	X16.29734 	Y6.96553 	Z1.79845
N385 	G01 	X15.71059 	Y6.96553 	Z1.82876
N386 	G01 	X15.12500 	Y6.96553 	Z1.85721
N387 	G01 	X14.54061 	Y6.96553 	Z1.88351
N388 	G01 	X13.95746 	Y6.96553 	Z1.90742
N389 	G01 	X13.37562 	Y6.96553 	Z1.92867
N390 	G01 	X12.79511 	Y6.96553 	Z1.94701
N391 	G01 	X12.21600 	Y6.96553 	Z1.96216
N392 	G01 	X11.63833 	Y6.96553 	Z1.97388
N393 	G01 	X11.06214 	Y6.96553 	Z1.98189
N394 	G01 	X10.48750 	Y6.96553 	Z1.98594
N395 	G01 	X9.91443 	Y6.96553 	Z1.98577
N396 	G01 	X9.34300 	Y6.96553 	Z1.98112
N397 	G01 	X8.77325 	Y6.96553 	Z1.97173
N398 	G01 	X8.20522 	Y6.96553 	Z1.95732
N399 	G01 	X7.63898 	Y6.96553 	Z1.93766
N400 	G01 	X7.07455 	Y6.96553 	Z1.91246
N401 	G01 	X6.51200 	Y6.96553 	Z1.88148
N402 	G01 	X5.95137 	Y6.96553 	Z1.84446
N403 	G01 	X5.39270 	Y6.96553 	Z1.80112
N404 	G01 	X4.83606 	Y6.96553 	Z1.75121
N405 	G01 	X4.28147 	Y6.96553 	Z1.69447
N406 	G01 	X3.72900 	Y6.96553 	Z1.63064
N407 	G01 	X3.17869 	Y6.96553 	Z1.55946
N408 	G01 	X2.63058 	Y6.96553 	Z1.48066
N409 	G01 	X2.08474 	Y6.96553 	Z1.39399
N410 	G01 	X1.54119 	Y6.96553 	Z1.29919
N411 	G01 	X1.00000 	Y6.96553 	Z1.19599

N412 	G01 	X1.00000 	Y7.24632 	Z1.22379
N413 	G01 	X1.54119 	Y7.24632 	Z1.32516
N414 	G01 	X2.08474 	Y7.24632 	Z1.41827
N415 	G01 	X2.63058 	Y7.24632 	Z1.50337
N416 	G01 	X3.17869 	Y7.24632 	Z1.58071
N417 	G01 	X3.72900 	Y7.24632 	Z1.65057
N418 	G01 	X4.28147 	Y7.24632 	Z1.71319
N419 	G01 	X4.83606 	Y7.24632 	Z1.76883
N420 	G01 	X5.39270 	Y7.24632 	Z1.81774
N421 	G01 	X5.95137 	Y7.24632 	Z1.86020
N422 	G01 	X6.51200 	Y7.24632 	Z1.89644
N423 	G01 	X7.07455 	Y7.24632 	Z1.92674
N424 	G01 	X7.63898 	Y7.24632 	Z1.95134
N425 	G01 	X8.20522 	Y7.24632 	Z1.97050
N426 	G01 	X8.77325 	Y7.24632 	Z1.98449
N427 	G01 	X9.34300 	Y7.24632 	Z1.99355
N428 	G01 	X9.91443 	Y7.24632 	Z1.99795
N429 	G01 	X10.48750 	Y7.24632 	Z1.99794
N430 	G01 	X11.06214 	Y7.24632 	Z1.99379
N431 	G01 	X11.63833 	Y7.24632 	Z1.98573
N432 	G01 	X12.21600 	Y7.24632 	Z1.97404
N433 	G01 	X12.79511 	Y7.24632 	Z1.95898
N434 	G01 	X13.37562 	Y7.24632 	Z1.94078
N435 	G01 	X13.95746 	Y7.24632 	Z1.91973
N436 	G01 	X14.54061 	Y7.24632 	Z1.89607
N437 	G01 	X15.12500 	Y7.24632 	Z1.87005
N438 	G01 	X15.71059 	Y7.24632 	Z1.84194
N439 	G01 	X16.29734 	Y7.24632 	Z1.81200
N440 	G01 	X16.88518 	Y7.24632 	Z1.78048
N441 	G01 	X17.47409 	Y7.24632 	Z1.74763
N442 	G01 	X18.06400 	Y7.24632 	Z1.71372
N443 	G01 	X18.65487 	Y7.24632 	Z1.67900
N444 	G01 	X19.24666 	Y7.24632 	Z1.64373
N445 	G01 	X19.83930 	Y7.24632 	Z1.60817
N446 	G01 	X20.43277 	Y7.24632 	Z1.57257
N447 	G01 	X21.02700 	Y7.24632 	Z1.53719
N448 	G01 	X21.62195 	Y7.24632 	Z1.50229
N449 	G01 	X22.21758 	Y7.24632 	Z1.46812
N450 	G01 	X22.81382 	Y7.24632 	Z1.43495
N451 	G01 	X23.41065 	Y7.24632 	Z1.40302
N452 	G01 	X24.00800 	Y7.24632 	Z1.37260
N453 	G01 	X24.60583 	Y7.24632 	Z1.34395
N454 	G01 	X25.20410 	Y7.24632 	Z1.31731
N455 	G01 	X25.80274 	Y7.24632 	Z1.29295
N456 	G01 	X26.40173 	Y7.24632 	Z1.27113
N457 	G01 	X27.00100 	Y7.24632 	Z1.25209
N458 	G01 	X27.60051 	Y7.24632 	Z1.23611
N459 	G01 	X28.20022 	Y7.24632 	Z1.22344
N460 	G01 	X28.80006 	Y7.24632 	Z1.21432
N461 	G01 	X29.40001 	Y7.24632 	Z1.20903
N462 	G01 	X30.00000 	Y7.24632 	Z1.20781

N463 	G01 	X30.00000 	Y7.52711 	Z1.23142
N464 	G01 	X29.40001 	Y7.52711 	Z1.23239
N465 	G01 	X28.80006 	Y7.52711 	Z1.23739
N466 	G01 	X28.20022 	Y7.52711 	Z1.24617
N467 	G01 	X27.60051 	Y7.52711 	Z1.25847
N468 	G01 	X27.00100 	Y7.52711 	Z1.27404
N469 	G01 	X26.40173 	Y7.52711 	Z1.29264
N470 	G01 	X25.80274 	Y7.52711 	Z1.31400
N471 	G01 	X25.20410 	Y7.52711 	Z1.33787
N472 	G01 	X24.60583 	Y7.52711 	Z1.36399
N473 	G01 	X24.00800 	Y7.52711 	Z1.39212
N474 	G01 	X23.41065 	Y7.52711 	Z1.42201
N475 	G01 	X22.81382 	Y7.52711 	Z1.45339
N476 	G01 	X22.21758 	Y7.52711 	Z1.48601
N477 	G01 	X21.62195 	Y7.52711 	Z1.51963
N478 	G01 	X21.02700 	Y7.52711 	Z1.55398
N479 	G01 	X20.43277 	Y7.52711 	Z1.58882
N480 	G01 	X19.83930 	Y7.52711 	Z1.62389
N481 	G01 	X19.24666 	Y7.52711 	Z1.65893
N482 	G01 	X18.65487 	Y7.52711 	Z1.69370
N483 	G01 	X18.06400 	Y7.52711 	Z1.72794
N484 	G01 	X17.47409 	Y7.52711 	Z1.76139
N485 	G01 	X16.88518 	Y7.52711 	Z1.79381
N486 	G01 	X16.29734 	Y7.52711 	Z1.82494
N487 	G01 	X15.71059 	Y7.52711 	Z1.85452
N488 	G01 	X15.12500 	Y7.52711 	Z1.88231
N489 	G01 	X14.54061 	Y7.52711 	Z1.90804
N490 	G01 	X13.95746 	Y7.52711 	Z1.93147
N491 	G01 	X13.37562 	Y7.52711 	Z1.95235
N492 	G01 	X12.79511 	Y7.52711 	Z1.97041
N493 	G01 	X12.21600 	Y7.52711 	Z1.98541
N494 	G01 	X11.63833 	Y7.52711 	Z1.99709
N495 	G01 	X11.06214 	Y7.52711 	Z2.00520
N496 	G01 	X10.48750 	Y7.52711 	Z2.00948
N497 	G01 	X9.91443 	Y7.52711 	Z2.00969
N498 	G01 	X9.34300 	Y7.52711 	Z2.00556
N499 	G01 	X8.77325 	Y7.52711 	Z1.99685
N500 	G01 	X8.20522 	Y7.52711 	Z1.98330
N501 	G01 	X7.63898 	Y7.52711 	Z1.96466
N502 	G01 	X7.07455 	Y7.52711 	Z1.94067
N503 	G01 	X6.51200 	Y7.52711 	Z1.91108
N504 	G01 	X5.95137 	Y7.52711 	Z1.87565
N505 	G01 	X5.39270 	Y7.52711 	Z1.83410
N506 	G01 	X4.83606 	Y7.52711 	Z1.78620
N507 	G01 	X4.28147 	Y7.52711 	Z1.73168
N508 	G01 	X3.72900 	Y7.52711 	Z1.67030
N509 	G01 	X3.17869 	Y7.52711 	Z1.60179
N510 	G01 	X2.63058 	Y7.52711 	Z1.52592
N511 	G01 	X2.08474 	Y7.52711 	Z1.44241
N512 	G01 	X1.54119 	Y7.52711 	Z1.35103
N513 	G01 	X1.00000 	Y7.52711 	Z1.25152

N514 	G01 	X1.00000 	Y7.80790 	Z1.27915
N515 	G01 	X1.54119 	Y7.80790 	Z1.37679
N516 	G01 	X2.08474 	Y7.80790 	Z1.46643
N517 	G01 	X2.63058 	Y7.80790 	Z1.54831
N518 	G01 	X3.17869 	Y7.80790 	Z1.62269
N519 	G01 	X3.72900 	Y7.80790 	Z1.68982
N520 	G01 	X4.28147 	Y7.80790 	Z1.74994
N521 	G01 	X4.83606 	Y7.80790 	Z1.80332
N522 	G01 	X5.39270 	Y7.80790 	Z1.85018
N523 	G01 	X5.95137 	Y7.80790 	Z1.89080
N524 	G01 	X6.51200 	Y7.80790 	Z1.92541
N525 	G01 	X7.07455 	Y7.80790 	Z1.95426
N526 	G01 	X7.63898 	Y7.80790 	Z1.97762
N527 	G01 	X8.20522 	Y7.80790 	Z1.99572
N528 	G01 	X8.77325 	Y7.80790 	Z2.00881
N529 	G01 	X9.34300 	Y7.80790 	Z2.01715
N530 	G01 	X9.91443 	Y7.80790 	Z2.02098
N531 	G01 	X10.48750 	Y7.80790 	Z2.02056
N532 	G01 	X11.06214 	Y7.80790 	Z2.01613
N533 	G01 	X11.63833 	Y7.80790 	Z2.00795
N534 	G01 	X12.21600 	Y7.80790 	Z1.99626
N535 	G01 	X12.79511 	Y7.80790 	Z1.98132
N536 	G01 	X13.37562 	Y7.80790 	Z1.96336
N537 	G01 	X13.95746 	Y7.80790 	Z1.94266
N538 	G01 	X14.54061 	Y7.80790 	Z1.91944
N539 	G01 	X15.12500 	Y7.80790 	Z1.89397
N540 	G01 	X15.71059 	Y7.80790 	Z1.86650
N541 	G01 	X16.29734 	Y7.80790 	Z1.83726
N542 	G01 	X16.88518 	Y7.80790 	Z1.80652
N543 	G01 	X17.47409 	Y7.80790 	Z1.77452
N544 	G01 	X18.06400 	Y7.80790 	Z1.74152
N545 	G01 	X18.65487 	Y7.80790 	Z1.70775
N546 	G01 	X19.24666 	Y7.80790 	Z1.67348
N547 	G01 	X19.83930 	Y7.80790 	Z1.63895
N548 	G01 	X20.43277 	Y7.80790 	Z1.60441
N549 	G01 	X21.02700 	Y7.80790 	Z1.57012
N550 	G01 	X21.62195 	Y7.80790 	Z1.53631
N551 	G01 	X22.21758 	Y7.80790 	Z1.50325
N552 	G01 	X22.81382 	Y7.80790 	Z1.47117
N553 	G01 	X23.41065 	Y7.80790 	Z1.44034
N554 	G01 	X24.00800 	Y7.80790 	Z1.41100
N555 	G01 	X24.60583 	Y7.80790 	Z1.38339
N556 	G01 	X25.20410 	Y7.80790 	Z1.35778
N557 	G01 	X25.80274 	Y7.80790 	Z1.33441
N558 	G01 	X26.40173 	Y7.80790 	Z1.31353
N559 	G01 	X27.00100 	Y7.80790 	Z1.29538
N560 	G01 	X27.60051 	Y7.80790 	Z1.28023
N561 	G01 	X28.20022 	Y7.80790 	Z1.26832
N562 	G01 	X28.80006 	Y7.80790 	Z1.25989
N563 	G01 	X29.40001 	Y7.80790 	Z1.25521
N564 	G01 	X30.00000 	Y7.80790 	Z1.25451

N565 	G01 	X30.00000 	Y8.08869 	Z1.27707
N566 	G01 	X29.40001 	Y8.08869 	Z1.27748
N567 	G01 	X28.80006 	Y8.08869 	Z1.28183
N568 	G01 	X28.20022 	Y8.08869 	Z1.28989
N569 	G01 	X27.60051 	Y8.08869 	Z1.30140
N570 	G01 	X27.00100 	Y8.08869 	Z1.31612
N571 	G01 	X26.40173 	Y8.08869 	Z1.33380
N572 	G01 	X25.80274 	Y8.08869 	Z1.35420
N573 	G01 	X25.20410 	Y8.08869 	Z1.37707
N574 	G01 	X24.60583 	Y8.08869 	Z1.40216
N575 	G01 	X24.00800 	Y8.08869 	Z1.42922
N576 	G01 	X23.41065 	Y8.08869 	Z1.45802
N577 	G01 	X22.81382 	Y8.08869 	Z1.48831
N578 	G01 	X22.21758 	Y8.08869 	Z1.51983
N579 	G01 	X21.62195 	Y8.08869 	Z1.55234
N580 	G01 	X21.02700 	Y8.08869 	Z1.58560
N581 	G01 	X20.43277 	Y8.08869 	Z1.61936
N582 	G01 	X19.83930 	Y8.08869 	Z1.65337
N583 	G01 	X19.24666 	Y8.08869 	Z1.68739
N584 	G01 	X18.65487 	Y8.08869 	Z1.72118
N585 	G01 	X18.06400 	Y8.08869 	Z1.75447
N586 	G01 	X17.47409 	Y8.08869 	Z1.78704
N587 	G01 	X16.88518 	Y8.08869 	Z1.81863
N588 	G01 	X16.29734 	Y8.08869 	Z1.84899
N589 	G01 	X15.71059 	Y8.08869 	Z1.87789
N590 	G01 	X15.12500 	Y8.08869 	Z1.90507
N591 	G01 	X14.54061 	Y8.08869 	Z1.93028
N592 	G01 	X13.95746 	Y8.08869 	Z1.95329
N593 	G01 	X13.37562 	Y8.08869 	Z1.97385
N594 	G01 	X12.79511 	Y8.08869 	Z1.99170
N595 	G01 	X12.21600 	Y8.08869 	Z2.00661
N596 	G01 	X11.63833 	Y8.08869 	Z2.01832
N597 	G01 	X11.06214 	Y8.08869 	Z2.02659
N598 	G01 	X10.48750 	Y8.08869 	Z2.03118
N599 	G01 	X9.91443 	Y8.08869 	Z2.03183
N600 	G01 	X9.34300 	Y8.08869 	Z2.02831
N601 	G01 	X8.77325 	Y8.08869 	Z2.02037
N602 	G01 	X8.20522 	Y8.08869 	Z2.00775
N603 	G01 	X7.63898 	Y8.08869 	Z1.99022
N604 	G01 	X7.07455 	Y8.08869 	Z1.96752
N605 	G01 	X6.51200 	Y8.08869 	Z1.93941
N606 	G01 	X5.95137 	Y8.08869 	Z1.90565
N607 	G01 	X5.39270 	Y8.08869 	Z1.86599
N608 	G01 	X4.83606 	Y8.08869 	Z1.82018
N609 	G01 	X4.28147 	Y8.08869 	Z1.76797
N610 	G01 	X3.72900 	Y8.08869 	Z1.70913
N611 	G01 	X3.17869 	Y8.08869 	Z1.64340
N612 	G01 	X2.63058 	Y8.08869 	Z1.57053
N613 	G01 	X2.08474 	Y8.08869 	Z1.49029
N614 	G01 	X1.54119 	Y8.08869 	Z1.40242
N615 	G01 	X1.00000 	Y8.08869 	Z1.30669

N616 	G01 	X1.00000 	Y8.36948 	Z1.33411
N617 	G01 	X1.54119 	Y8.36948 	Z1.42793
N618 	G01 	X2.08474 	Y8.36948 	Z1.51401
N619 	G01 	X2.63058 	Y8.36948 	Z1.59259
N620 	G01 	X3.17869 	Y8.36948 	Z1.66391
N621 	G01 	X3.72900 	Y8.36948 	Z1.72822
N622 	G01 	X4.28147 	Y8.36948 	Z1.78577
N623 	G01 	X4.83606 	Y8.36948 	Z1.83678
N624 	G01 	X5.39270 	Y8.36948 	Z1.88151
N625 	G01 	X5.95137 	Y8.36948 	Z1.92020
N626 	G01 	X6.51200 	Y8.36948 	Z1.95310
N627 	G01 	X7.07455 	Y8.36948 	Z1.98043
N628 	G01 	X7.63898 	Y8.36948 	Z2.00245
N629 	G01 	X8.20522 	Y8.36948 	Z2.01940
N630 	G01 	X8.77325 	Y8.36948 	Z2.03152
N631 	G01 	X9.34300 	Y8.36948 	Z2.03906
N632 	G01 	X9.91443 	Y8.36948 	Z2.04225
N633 	G01 	X10.48750 	Y8.36948 	Z2.04135
N634 	G01 	X11.06214 	Y8.36948 	Z2.03658
N635 	G01 	X11.63833 	Y8.36948 	Z2.02820
N636 	G01 	X12.21600 	Y8.36948 	Z2.01645
N637 	G01 	X12.79511 	Y8.36948 	Z2.00157
N638 	G01 	X13.37562 	Y8.36948 	Z1.98380
N639 	G01 	X13.95746 	Y8.36948 	Z1.96338
N640 	G01 	X14.54061 	Y8.36948 	Z1.94056
N641 	G01 	X15.12500 	Y8.36948 	Z1.91559
N642 	G01 	X15.71059 	Y8.36948 	Z1.88870
N643 	G01 	X16.29734 	Y8.36948 	Z1.86013
N644 	G01 	X16.88518 	Y8.36948 	Z1.83013
N645 	G01 	X17.47409 	Y8.36948 	Z1.79894
N646 	G01 	X18.06400 	Y8.36948 	Z1.76681
N647 	G01 	X18.65487 	Y8.36948 	Z1.73397
N648 	G01 	X19.24666 	Y8.36948 	Z1.70068
N649 	G01 	X19.83930 	Y8.36948 	Z1.66716
N650 	G01 	X20.43277 	Y8.36948 	Z1.63367
N651 	G01 	X21.02700 	Y8.36948 	Z1.60044
N652 	G01 	X21.62195 	Y8.36948 	Z1.56773
N653 	G01 	X22.21758 	Y8.36948 	Z1.53576
N654 	G01 	X22.81382 	Y8.36948 	Z1.50480
N655 	G01 	X23.41065 	Y8.36948 	Z1.47507
N656 	G01 	X24.00800 	Y8.36948 	Z1.44682
N657 	G01 	X24.60583 	Y8.36948 	Z1.42029
N658 	G01 	X25.20410 	Y8.36948 	Z1.39573
N659 	G01 	X25.80274 	Y8.36948 	Z1.37337
N660 	G01 	X26.40173 	Y8.36948 	Z1.35347
N661 	G01 	X27.00100 	Y8.36948 	Z1.33626
N662 	G01 	X27.60051 	Y8.36948 	Z1.32199
N663 	G01 	X28.20022 	Y8.36948 	Z1.31089
N664 	G01 	X28.80006 	Y8.36948 	Z1.30322
N665 	G01 	X29.40001 	Y8.36948 	Z1.29921
N666 	G01 	X30.00000 	Y8.36948 	Z1.29910

N667 	G01 	X30.00000 	Y8.65026 	Z1.32061
N668 	G01 	X29.40001 	Y8.65026 	Z1.32039
N669 	G01 	X28.80006 	Y8.65026 	Z1.32404
N670 	G01 	X28.20022 	Y8.65026 	Z1.33132
N671 	G01 	X27.60051 	Y8.65026 	Z1.34199
N672 	G01 	X27.00100 	Y8.65026 	Z1.35580
N673 	G01 	X26.40173 	Y8.65026 	Z1.37253
N674 	G01 	X25.80274 	Y8.65026 	Z1.39193
N675 	G01 	X25.20410 	Y8.65026 	Z1.41377
N676 	G01 	X24.60583 	Y8.65026 	Z1.43780
N677 	G01 	X24.00800 	Y8.65026 	Z1.46378
N678 	G01 	X23.41065 	Y8.65026 	Z1.49148
N679 	G01 	X22.81382 	Y8.65026 	Z1.52066
N680 	G01 	X22.21758 	Y8.65026 	Z1.55107
N681 	G01 	X21.62195 	Y8.65026 	Z1.58248
N682 	G01 	X21.02700 	Y8.65026 	Z1.61465
N683 	G01 	X20.43277 	Y8.65026 	Z1.64735
N684 	G01 	X19.83930 	Y8.65026 	Z1.68032
N685 	G01 	X19.24666 	Y8.65026 	Z1.71334
N686 	G01 	X18.65487 	Y8.65026 	Z1.74616
N687 	G01 	X18.06400 	Y8.65026 	Z1.77854
N688 	G01 	X17.47409 	Y8.65026 	Z1.81025
N689 	G01 	X16.88518 	Y8.65026 	Z1.84104
N690 	G01 	X16.29734 	Y8.65026 	Z1.87068
N691 	G01 	X15.71059 	Y8.65026 	Z1.89893
N692 	G01 	X15.12500 	Y8.65026 	Z1.92555
N693 	G01 	X14.54061 	Y8.65026 	Z1.95030
N694 	G01 	X13.95746 	Y8.65026 	Z1.97293
N695 	G01 	X13.37562 	Y8.65026 	Z1.99322
N696 	G01 	X12.79511 	Y8.65026 	Z2.01092
N697 	G01 	X12.21600 	Y8.65026 	Z2.02580
N698 	G01 	X11.63833 	Y8.65026 	Z2.03761
N699 	G01 	X11.06214 	Y8.65026 	Z2.04611
N700 	G01 	X10.48750 	Y8.65026 	Z2.05107
N701 	G01 	X9.91443 	Y8.65026 	Z2.05224
N702 	G01 	X9.34300 	Y8.65026 	Z2.04940
N703 	G01 	X8.77325 	Y8.65026 	Z2.04229
N704 	G01 	X8.20522 	Y8.65026 	Z2.03068
N705 	G01 	X7.63898 	Y8.65026 	Z2.01433
N706 	G01 	X7.07455 	Y8.65026 	Z1.99300
N707 	G01 	X6.51200 	Y8.65026 	Z1.96646
N708 	G01 	X5.95137 	Y8.65026 	Z1.93445
N709 	G01 	X5.39270 	Y8.65026 	Z1.89676
N710 	G01 	X4.83606 	Y8.65026 	Z1.85312
N711 	G01 	X4.28147 	Y8.65026 	Z1.80332
N712 	G01 	X3.72900 	Y8.65026 	Z1.74710
N713 	G01 	X3.17869 	Y8.65026 	Z1.68422
N714 	G01 	X2.63058 	Y8.65026 	Z1.61446
N715 	G01 	X2.08474 	Y8.65026 	Z1.53756
N716 	G01 	X1.54119 	Y8.65026 	Z1.45330
N717 	G01 	X1.00000 	Y8.65026 	Z1.36142

N718 	G01 	X1.00000 	Y8.93105 	Z1.38861
N719 	G01 	X1.54119 	Y8.93105 	Z1.47852
N720 	G01 	X2.08474 	Y8.93105 	Z1.56095
N721 	G01 	X2.63058 	Y8.93105 	Z1.63614
N722 	G01 	X3.17869 	Y8.93105 	Z1.70433
N723 	G01 	X3.72900 	Y8.93105 	Z1.76574
N724 	G01 	X4.28147 	Y8.93105 	Z1.82062
N725 	G01 	X4.83606 	Y8.93105 	Z1.86920
N726 	G01 	X5.39270 	Y8.93105 	Z1.91171
N727 	G01 	X5.95137 	Y8.93105 	Z1.94840
N728 	G01 	X6.51200 	Y8.93105 	Z1.97949
N729 	G01 	X7.07455 	Y8.93105 	Z2.00523
N730 	G01 	X7.63898 	Y8.93105 	Z2.02585
N731 	G01 	X8.20522 	Y8.93105 	Z2.04158
N732 	G01 	X8.77325 	Y8.93105 	Z2.05265
N733 	G01 	X9.34300 	Y8.93105 	Z2.05932
N734 	G01 	X9.91443 	Y8.93105 	Z2.06180
N735 	G01 	X10.48750 	Y8.93105 	Z2.06034
N736 	G01 	X11.06214 	Y8.93105 	Z2.05517
N737 	G01 	X11.63833 	Y8.93105 	Z2.04653
N738 	G01 	X12.21600 	Y8.93105 	Z2.03466
N739 	G01 	X12.79511 	Y8.93105 	Z2.01978
N740 	G01 	X13.37562 	Y8.93105 	Z2.00213
N741 	G01 	X13.95746 	Y8.93105 	Z1.98196
N742 	G01 	X14.54061 	Y8.93105 	Z1.95949
N743 	G01 	X15.12500 	Y8.93105 	Z1.93496
N744 	G01 	X15.71059 	Y8.93105 	Z1.90861
N745 	G01 	X16.29734 	Y8.93105 	Z1.88067
N746 	G01 	X16.88518 	Y8.93105 	Z1.85137
N747 	G01 	X17.47409 	Y8.93105 	Z1.82096
N748 	G01 	X18.06400 	Y8.93105 	Z1.78967
N749 	G01 	X18.65487 	Y8.93105 	Z1.75774
N750 	G01 	X19.24666 	Y8.93105 	Z1.72539
N751 	G01 	X19.83930 	Y8.93105 	Z1.69287
N752 	G01 	X20.43277 	Y8.93105 	Z1.66041
N753 	G01 	X21.02700 	Y8.93105 	Z1.62825
N754 	G01 	X21.62195 	Y8.93105 	Z1.59661
N755 	G01 	X22.21758 	Y8.93105 	Z1.56575
N756 	G01 	X22.81382 	Y8.93105 	Z1.53589
N757 	G01 	X23.41065 	Y8.93105 	Z1.50727
N758 	G01 	X24.00800 	Y8.93105 	Z1.48012
N759 	G01 	X24.60583 	Y8.93105 	Z1.45469
N760 	G01 	X25.20410 	Y8.93105 	Z1.43120
N761 	G01 	X25.80274 	Y8.93105 	Z1.40989
N762 	G01 	X26.40173 	Y8.93105 	Z1.39100
N763 	G01 	X27.00100 	Y8.93105 	Z1.37476
N764 	G01 	X27.60051 	Y8.93105 	Z1.36141
N765 	G01 	X28.20022 	Y8.93105 	Z1.35118
N766 	G01 	X28.80006 	Y8.93105 	Z1.34431
N767 	G01 	X29.40001 	Y8.93105 	Z1.34104
N768 	G01 	X30.00000 	Y8.93105 	Z1.34159

N769 	G01 	X30.00000 	Y9.21184 	Z1.36205
N770 	G01 	X29.40001 	Y9.21184 	Z1.36114
N771 	G01 	X28.80006 	Y9.21184 	Z1.36403
N772 	G01 	X28.20022 	Y9.21184 	Z1.37048
N773 	G01 	X27.60051 	Y9.21184 	Z1.38025
N774 	G01 	X27.00100 	Y9.21184 	Z1.39313
N775 	G01 	X26.40173 	Y9.21184 	Z1.40887
N776 	G01 	X25.80274 	Y9.21184 	Z1.42725
N777 	G01 	X25.20410 	Y9.21184 	Z1.44802
N778 	G01 	X24.60583 	Y9.21184 	Z1.47097
N779 	G01 	X24.00800 	Y9.21184 	Z1.49586
N780 	G01 	X23.41065 	Y9.21184 	Z1.52245
N781 	G01 	X22.81382 	Y9.21184 	Z1.55051
N782 	G01 	X22.21758 	Y9.21184 	Z1.57982
N783 	G01 	X21.62195 	Y9.21184 	Z1.61013
N784 	G01 	X21.02700 	Y9.21184 	Z1.64122
N785 	G01 	X20.43277 	Y9.21184 	Z1.67286
N786 	G01 	X19.83930 	Y9.21184 	Z1.70481
N787 	G01 	X19.24666 	Y9.21184 	Z1.73684
N788 	G01 	X18.65487 	Y9.21184 	Z1.76872
N789 	G01 	X18.06400 	Y9.21184 	Z1.80022
N790 	G01 	X17.47409 	Y9.21184 	Z1.83110
N791 	G01 	X16.88518 	Y9.21184 	Z1.86113
N792 	G01 	X16.29734 	Y9.21184 	Z1.89008
N793 	G01 	X15.71059 	Y9.21184 	Z1.91772
N794 	G01 	X15.12500 	Y9.21184 	Z1.94382
N795 	G01 	X14.54061 	Y9.21184 	Z1.96814
N796 	G01 	X13.95746 	Y9.21184 	Z1.99046
N797 	G01 	X13.37562 	Y9.21184 	Z2.01053
N798 	G01 	X12.79511 	Y9.21184 	Z2.02813
N799 	G01 	X12.21600 	Y9.21184 	Z2.04303
N800 	G01 	X11.63833 	Y9.21184 	Z2.05499
N801 	G01 	X11.06214 	Y9.21184 	Z2.06378
N802 	G01 	X10.48750 	Y9.21184 	Z2.06918
N803 	G01 	X9.91443 	Y9.21184 	Z2.07094
N804 	G01 	X9.34300 	Y9.21184 	Z2.06883
N805 	G01 	X8.77325 	Y9.21184 	Z2.06263
N806 	G01 	X8.20522 	Y9.21184 	Z2.05210
N807 	G01 	X7.63898 	Y9.21184 	Z2.03700
N808 	G01 	X7.07455 	Y9.21184 	Z2.01712
N809 	G01 	X6.51200 	Y9.21184 	Z1.99221
N810 	G01 	X5.95137 	Y9.21184 	Z1.96204
N811 	G01 	X5.39270 	Y9.21184 	Z1.92638
N812 	G01 	X4.83606 	Y9.21184 	Z1.88500
N813 	G01 	X4.28147 	Y9.21184 	Z1.83767
N814 	G01 	X3.72900 	Y9.21184 	Z1.78415
N815 	G01 	X3.17869 	Y9.21184 	Z1.72422
N816 	G01 	X2.63058 	Y9.21184 	Z1.65763
N817 	G01 	X2.08474 	Y9.21184 	Z1.58416
N818 	G01 	X1.54119 	Y9.21184 	Z1.50358
N819 	G01 	X1.00000 	Y9.21184 	Z1.41565

N820 	G01 	X1.00000 	Y9.49263 	Z1.44255
N821 	G01 	X1.54119 	Y9.49263 	Z1.52847
N822 	G01 	X2.08474 	Y9.49263 	Z1.60719
N823 	G01 	X2.63058 	Y9.49263 	Z1.67892
N824 	G01 	X3.17869 	Y9.49263 	Z1.74388
N825 	G01 	X3.72900 	Y9.49263 	Z1.80233
N826 	G01 	X4.28147 	Y9.49263 	Z1.85447
N827 	G01 	X4.83606 	Y9.49263 	Z1.90053
N828 	G01 	X5.39270 	Y9.49263 	Z1.94076
N829 	G01 	X5.95137 	Y9.49263 	Z1.97537
N830 	G01 	X6.51200 	Y9.49263 	Z2.00460
N831 	G01 	X7.07455 	Y9.49263 	Z2.02866
N832 	G01 	X7.63898 	Y9.49263 	Z2.04780
N833 	G01 	X8.20522 	Y9.49263 	Z2.06224
N834 	G01 	X8.77325 	Y9.49263 	Z2.07221
N835 	G01 	X9.34300 	Y9.49263 	Z2.07794
N836 	G01 	X9.91443 	Y9.49263 	Z2.07965
N837 	G01 	X10.48750 	Y9.49263 	Z2.07757
N838 	G01 	X11.06214 	Y9.49263 	Z2.07194
N839 	G01 	X11.63833 	Y9.49263 	Z2.06299
N840 	G01 	X12.21600 	Y9.49263 	Z2.05093
N841 	G01 	X12.79511 	Y9.49263 	Z2.03600
N842 	G01 	X13.37562 	Y9.49263 	Z2.01843
N843 	G01 	X13.95746 	Y9.49263 	Z1.99844
N844 	G01 	X14.54061 	Y9.49263 	Z1.97627
N845 	G01 	X15.12500 	Y9.49263 	Z1.95215
N846 	G01 	X15.71059 	Y9.49263 	Z1.92629
N847 	G01 	X16.29734 	Y9.49263 	Z1.89894
N848 	G01 	X16.88518 	Y9.49263 	Z1.87032
N849 	G01 	X17.47409 	Y9.49263 	Z1.84066
N850 	G01 	X18.06400 	Y9.49263 	Z1.81018
N851 	G01 	X18.65487 	Y9.49263 	Z1.77912
N852 	G01 	X19.24666 	Y9.49263 	Z1.74770
N853 	G01 	X19.83930 	Y9.49263 	Z1.71615
N854 	G01 	X20.43277 	Y9.49263 	Z1.68471
N855 	G01 	X21.02700 	Y9.49263 	Z1.65360
N856 	G01 	X21.62195 	Y9.49263 	Z1.62304
N857 	G01 	X22.21758 	Y9.49263 	Z1.59328
N858 	G01 	X22.81382 	Y9.49263 	Z1.56452
N859 	G01 	X23.41065 	Y9.49263 	Z1.53702
N860 	G01 	X24.00800 	Y9.49263 	Z1.51099
N861 	G01 	X24.60583 	Y9.49263 	Z1.48665
N862 	G01 	X25.20410 	Y9.49263 	Z1.46425
N863 	G01 	X25.80274 	Y9.49263 	Z1.44401
N864 	G01 	X26.40173 	Y9.49263 	Z1.42616
N865 	G01 	X27.00100 	Y9.49263 	Z1.41092
N866 	G01 	X27.60051 	Y9.49263 	Z1.39853
N867 	G01 	X28.20022 	Y9.49263 	Z1.38921
N868 	G01 	X28.80006 	Y9.49263 	Z1.38319
N869 	G01 	X29.40001 	Y9.49263 	Z1.38071
N870 	G01 	X30.00000 	Y9.49263 	Z1.38198

N871 	G01 	X30.00000 	Y9.77342 	Z1.40139
N872 	G01 	X29.40001 	Y9.77342 	Z1.39974
N873 	G01 	X28.80006 	Y9.77342 	Z1.40181
N874 	G01 	X28.20022 	Y9.77342 	Z1.40739
N875 	G01 	X27.60051 	Y9.77342 	Z1.41624
N876 	G01 	X27.00100 	Y9.77342 	Z1.42814
N877 	G01 	X26.40173 	Y9.77342 	Z1.44286
N878 	G01 	X25.80274 	Y9.77342 	Z1.46019
N879 	G01 	X25.20410 	Y9.77342 	Z1.47989
N880 	G01 	X24.60583 	Y9.77342 	Z1.50174
N881 	G01 	X24.00800 	Y9.77342 	Z1.52552
N882 	G01 	X23.41065 	Y9.77342 	Z1.55099
N883 	G01 	X22.81382 	Y9.77342 	Z1.57794
N884 	G01 	X22.21758 	Y9.77342 	Z1.60614
N885 	G01 	X21.62195 	Y9.77342 	Z1.63536
N886 	G01 	X21.02700 	Y9.77342 	Z1.66538
N887 	G01 	X20.43277 	Y9.77342 	Z1.69597
N888 	G01 	X19.83930 	Y9.77342 	Z1.72691
N889 	G01 	X19.24666 	Y9.77342 	Z1.75798
N890 	G01 	X18.65487 	Y9.77342 	Z1.78894
N891 	G01 	X18.06400 	Y9.77342 	Z1.81957
N892 	G01 	X17.47409 	Y9.77342 	Z1.84965
N893 	G01 	X16.88518 	Y9.77342 	Z1.87896
N894 	G01 	X16.29734 	Y9.77342 	Z1.90726
N895 	G01 	X15.71059 	Y9.77342 	Z1.93433
N896 	G01 	X15.12500 	Y9.77342 	Z1.95995
N897 	G01 	X14.54061 	Y9.77342 	Z1.98388
N898 	G01 	X13.95746 	Y9.77342 	Z2.00592
N899 	G01 	X13.37562 	Y9.77342 	Z2.02583
N900 	G01 	X12.79511 	Y9.77342 	Z2.04338
N901 	G01 	X12.21600 	Y9.77342 	Z2.05835
N902 	G01 	X11.63833 	Y9.77342 	Z2.07052
N903 	G01 	X11.06214 	Y9.77342 	Z2.07966
N904 	G01 	X10.48750 	Y9.77342 	Z2.08554
N905 	G01 	X9.91443 	Y9.77342 	Z2.08794
N906 	G01 	X9.34300 	Y9.77342 	Z2.08664
N907 	G01 	X8.77325 	Y9.77342 	Z2.08140
N908 	G01 	X8.20522 	Y9.77342 	Z2.07201
N909 	G01 	X7.63898 	Y9.77342 	Z2.05824
N910 	G01 	X7.07455 	Y9.77342 	Z2.03986
N911 	G01 	X6.51200 	Y9.77342 	Z2.01666
N912 	G01 	X5.95137 	Y9.77342 	Z1.98839
N913 	G01 	X5.39270 	Y9.77342 	Z1.95484
N914 	G01 	X4.83606 	Y9.77342 	Z1.91579
N915 	G01 	X4.28147 	Y9.77342 	Z1.87100
N916 	G01 	X3.72900 	Y9.77342 	Z1.82026
N917 	G01 	X3.17869 	Y9.77342 	Z1.76333
N918 	G01 	X2.63058 	Y9.77342 	Z1.69999
N919 	G01 	X2.08474 	Y9.77342 	Z1.63002
N920 	G01 	X1.54119 	Y9.77342 	Z1.55320
N921 	G01 	X1.00000 	Y9.77342 	Z1.46929

N922 	G01 	X1.00000 	Y10.05421 	Z1.49586
N923 	G01 	X1.54119 	Y10.05421 	Z1.57773
N924 	G01 	X2.08474 	Y10.05421 	Z1.65266
N925 	G01 	X2.63058 	Y10.05421 	Z1.72085
N926 	G01 	X3.17869 	Y10.05421 	Z1.78254
N927 	G01 	X3.72900 	Y10.05421 	Z1.83794
N928 	G01 	X4.28147 	Y10.05421 	Z1.88727
N929 	G01 	X4.83606 	Y10.05421 	Z1.93076
N930 	G01 	X5.39270 	Y10.05421 	Z1.96863
N931 	G01 	X5.95137 	Y10.05421 	Z2.00110
N932 	G01 	X6.51200 	Y10.05421 	Z2.02839
N933 	G01 	X7.07455 	Y10.05421 	Z2.05072
N934 	G01 	X7.63898 	Y10.05421 	Z2.06832
N935 	G01 	X8.20522 	Y10.05421 	Z2.08141
N936 	G01 	X8.77325 	Y10.05421 	Z2.09021
N937 	G01 	X9.34300 	Y10.05421 	Z2.09494
N938 	G01 	X9.91443 	Y10.05421 	Z2.09582
N939 	G01 	X10.48750 	Y10.05421 	Z2.09307
N940 	G01 	X11.06214 	Y10.05421 	Z2.08693
N941 	G01 	X11.63833 	Y10.05421 	Z2.07760
N942 	G01 	X12.21600 	Y10.05421 	Z2.06531
N943 	G01 	X12.79511 	Y10.05421 	Z2.05028
N944 	G01 	X13.37562 	Y10.05421 	Z2.03273
N945 	G01 	X13.95746 	Y10.05421 	Z2.01290
N946 	G01 	X14.54061 	Y10.05421 	Z1.99098
N947 	G01 	X15.12500 	Y10.05421 	Z1.96722
N948 	G01 	X15.71059 	Y10.05421 	Z1.94183
N949 	G01 	X16.29734 	Y10.05421 	Z1.91503
N950 	G01 	X16.88518 	Y10.05421 	Z1.88704
N951 	G01 	X17.47409 	Y10.05421 	Z1.85809
N952 	G01 	X18.06400 	Y10.05421 	Z1.82840
N953 	G01 	X18.65487 	Y10.05421 	Z1.79819
N954 	G01 	X19.24666 	Y10.05421 	Z1.76768
N955 	G01 	X19.83930 	Y10.05421 	Z1.73709
N956 	G01 	X20.43277 	Y10.05421 	Z1.70665
N957 	G01 	X21.02700 	Y10.05421 	Z1.67657
N958 	G01 	X21.62195 	Y10.05421 	Z1.64709
N959 	G01 	X22.21758 	Y10.05421 	Z1.61841
N960 	G01 	X22.81382 	Y10.05421 	Z1.59077
N961 	G01 	X23.41065 	Y10.05421 	Z1.56438
N962 	G01 	X24.00800 	Y10.05421 	Z1.53946
N963 	G01 	X24.60583 	Y10.05421 	Z1.51624
N964 	G01 	X25.20410 	Y10.05421 	Z1.49495
N965 	G01 	X25.80274 	Y10.05421 	Z1.47579
N966 	G01 	X26.40173 	Y10.05421 	Z1.45900
N967 	G01 	X27.00100 	Y10.05421 	Z1.44479
N968 	G01 	X27.60051 	Y10.05421 	Z1.43338
N969 	G01 	X28.20022 	Y10.05421 	Z1.42501
N970 	G01 	X28.80006 	Y10.05421 	Z1.41988
N971 	G01 	X29.40001 	Y10.05421 	Z1.41823
N972 	G01 	X30.00000 	Y10.05421 	Z1.42027

N973 	G01 	X30.00000 	Y10.33500 	Z1.43863
N974 	G01 	X29.40001 	Y10.33500 	Z1.43619
N975 	G01 	X28.80006 	Y10.33500 	Z1.43741
N976 	G01 	X28.20022 	Y10.33500 	Z1.44208
N977 	G01 	X27.60051 	Y10.33500 	Z1.44997
N978 	G01 	X27.00100 	Y10.33500 	Z1.46087
N979 	G01 	X26.40173 	Y10.33500 	Z1.47456
N980 	G01 	X25.80274 	Y10.33500 	Z1.49081
N981 	G01 	X25.20410 	Y10.33500 	Z1.50942
N982 	G01 	X24.60583 	Y10.33500 	Z1.53017
N983 	G01 	X24.00800 	Y10.33500 	Z1.55283
N984 	G01 	X23.41065 	Y10.33500 	Z1.57718
N985 	G01 	X22.81382 	Y10.33500 	Z1.60301
N986 	G01 	X22.21758 	Y10.33500 	Z1.63011
N987 	G01 	X21.62195 	Y10.33500 	Z1.65824
N988 	G01 	X21.02700 	Y10.33500 	Z1.68720
N989 	G01 	X20.43277 	Y10.33500 	Z1.71676
N990 	G01 	X19.83930 	Y10.33500 	Z1.74671
N991 	G01 	X19.24666 	Y10.33500 	Z1.77682
N992 	G01 	X18.65487 	Y10.33500 	Z1.80689
N993 	G01 	X18.06400 	Y10.33500 	Z1.83668
N994 	G01 	X17.47409 	Y10.33500 	Z1.86599
N995 	G01 	X16.88518 	Y10.33500 	Z1.89459
N996 	G01 	X16.29734 	Y10.33500 	Z1.92227
N997 	G01 	X15.71059 	Y10.33500 	Z1.94881
N998 	G01 	X15.12500 	Y10.33500 	Z1.97398
N999 	G01 	X14.54061 	Y10.33500 	Z1.99758
N1000 	G01 	X13.95746 	Y10.33500 	Z2.01938
N1001 	G01 	X13.37562 	Y10.33500 	Z2.03916
N1002 	G01 	X12.79511 	Y10.33500 	Z2.05671
N1003 	G01 	X12.21600 	Y10.33500 	Z2.07180
N1004 	G01 	X11.63833 	Y10.33500 	Z2.08423
N1005 	G01 	X11.06214 	Y10.33500 	Z2.09376
N1006 	G01 	X10.48750 	Y10.33500 	Z2.10018
N1007 	G01 	X9.91443 	Y10.33500 	Z2.10328
N1008 	G01 	X9.34300 	Y10.33500 	Z2.10284
N1009 	G01 	X8.77325 	Y10.33500 	Z2.09863
N1010 	G01 	X8.20522 	Y10.33500 	Z2.09044
N1011 	G01 	X7.63898 	Y10.33500 	Z2.07805
N1012 	G01 	X7.07455 	Y10.33500 	Z2.06124
N1013 	G01 	X6.51200 	Y10.33500 	Z2.03979
N1014 	G01 	X5.95137 	Y10.33500 	Z2.01349
N1015 	G01 	X5.39270 	Y10.33500 	Z1.98211
N1016 	G01 	X4.83606 	Y10.33500 	Z1.94545
N1017 	G01 	X4.28147 	Y10.33500 	Z1.90327
N1018 	G01 	X3.72900 	Y10.33500 	Z1.85536
N1019 	G01 	X3.17869 	Y10.33500 	Z1.80151
N1020 	G01 	X2.63058 	Y10.33500 	Z1.74149
N1021 	G01 	X2.08474 	Y10.33500 	Z1.67508
N1022 	G01 	X1.54119 	Y10.33500 	Z1.60208
N1023 	G01 	X1.00000 	Y10.33500 	Z1.52225

N1024 	G01 	X1.00000 	Y10.61579 	Z1.54846
N1025 	G01 	X1.54119 	Y10.61579 	Z1.62622
N1026 	G01 	X2.08474 	Y10.61579 	Z1.69730
N1027 	G01 	X2.63058 	Y10.61579 	Z1.76189
N1028 	G01 	X3.17869 	Y10.61579 	Z1.82023
N1029 	G01 	X3.72900 	Y10.61579 	Z1.87253
N1030 	G01 	X4.28147 	Y10.61579 	Z1.91899
N1031 	G01 	X4.83606 	Y10.61579 	Z1.95984
N1032 	G01 	X5.39270 	Y10.61579 	Z1.99530
N1033 	G01 	X5.95137 	Y10.61579 	Z2.02556
N1034 	G01 	X6.51200 	Y10.61579 	Z2.05086
N1035 	G01 	X7.07455 	Y10.61579 	Z2.07141
N1036 	G01 	X7.63898 	Y10.61579 	Z2.08741
N1037 	G01 	X8.20522 	Y10.61579 	Z2.09909
N1038 	G01 	X8.77325 	Y10.61579 	Z2.10666
N1039 	G01 	X9.34300 	Y10.61579 	Z2.11034
N1040 	G01 	X9.91443 	Y10.61579 	Z2.11034
N1041 	G01 	X10.48750 	Y10.61579 	Z2.10687
N1042 	G01 	X11.06214 	Y10.61579 	Z2.10016
N1043 	G01 	X11.63833 	Y10.61579 	Z2.09041
N1044 	G01 	X12.21600 	Y10.61579 	Z2.07784
N1045 	G01 	X12.79511 	Y10.61579 	Z2.06267
N1046 	G01 	X13.37562 	Y10.61579 	Z2.04511
N1047 	G01 	X13.95746 	Y10.61579 	Z2.02537
N1048 	G01 	X14.54061 	Y10.61579 	Z2.00368
N1049 	G01 	X15.12500 	Y10.61579 	Z1.98024
N1050 	G01 	X15.71059 	Y10.61579 	Z1.95527
N1051 	G01 	X16.29734 	Y10.61579 	Z1.92899
N1052 	G01 	X16.88518 	Y10.61579 	Z1.90161
N1053 	G01 	X17.47409 	Y10.61579 	Z1.87335
N1054 	G01 	X18.06400 	Y10.61579 	Z1.84442
N1055 	G01 	X18.65487 	Y10.61579 	Z1.81503
N1056 	G01 	X19.24666 	Y10.61579 	Z1.78541
N1057 	G01 	X19.83930 	Y10.61579 	Z1.75576
N1058 	G01 	X20.43277 	Y10.61579 	Z1.72630
N1059 	G01 	X21.02700 	Y10.61579 	Z1.69725
N1060 	G01 	X21.62195 	Y10.61579 	Z1.66882
N1061 	G01 	X22.21758 	Y10.61579 	Z1.64123
N1062 	G01 	X22.81382 	Y10.61579 	Z1.61469
N1063 	G01 	X23.41065 	Y10.61579 	Z1.58941
N1064 	G01 	X24.00800 	Y10.61579 	Z1.56562
N1065 	G01 	X24.60583 	Y10.61579 	Z1.54352
N1066 	G01 	X25.20410 	Y10.61579 	Z1.52333
N1067 	G01 	X25.80274 	Y10.61579 	Z1.50527
N1068 	G01 	X26.40173 	Y10.61579 	Z1.48955
N1069 	G01 	X27.00100 	Y10.61579 	Z1.47639
N1070 	G01 	X27.60051 	Y10.61579 	Z1.46600
N1071 	G01 	X28.20022 	Y10.61579 	Z1.45860
N1072 	G01 	X28.80006 	Y10.61579 	Z1.45440
N1073 	G01 	X29.40001 	Y10.61579 	Z1.45361
N1074 	G01 	X30.00000 	Y10.61579 	Z1.45646

N1075 	G01 	X30.00000 	Y10.89658 	Z1.47376
N1076 	G01 	X29.40001 	Y10.89658 	Z1.47050
N1077 	G01 	X28.80006 	Y10.89658 	Z1.47084
N1078 	G01 	X28.20022 	Y10.89658 	Z1.47457
N1079 	G01 	X27.60051 	Y10.89658 	Z1.48148
N1080 	G01 	X27.00100 	Y10.89658 	Z1.49136
N1081 	G01 	X26.40173 	Y10.89658 	Z1.50399
N1082 	G01 	X25.80274 	Y10.89658 	Z1.51917
N1083 	G01 	X25.20410 	Y10.89658 	Z1.53668
N1084 	G01 	X24.60583 	Y10.89658 	Z1.55631
N1085 	G01 	X24.00800 	Y10.89658 	Z1.57785
N1086 	G01 	X23.41065 	Y10.89658 	Z1.60108
N1087 	G01 	X22.81382 	Y10.89658 	Z1.62580
N1088 	G01 	X22.21758 	Y10.89658 	Z1.65179
N1089 	G01 	X21.62195 	Y10.89658 	Z1.67885
N1090 	G01 	X21.02700 	Y10.89658 	Z1.70675
N1091 	G01 	X20.43277 	Y10.89658 	Z1.73530
N1092 	G01 	X19.83930 	Y10.89658 	Z1.76427
N1093 	G01 	X19.24666 	Y10.89658 	Z1.79345
N1094 	G01 	X18.65487 	Y10.89658 	Z1.82264
N1095 	G01 	X18.06400 	Y10.89658 	Z1.85162
N1096 	G01 	X17.47409 	Y10.89658 	Z1.88019
N1097 	G01 	X16.88518 	Y10.89658 	Z1.90812
N1098 	G01 	X16.29734 	Y10.89658 	Z1.93520
N1099 	G01 	X15.71059 	Y10.89658 	Z1.96124
N1100 	G01 	X15.12500 	Y10.89658 	Z1.98600
N1101 	G01 	X14.54061 	Y10.89658 	Z2.00929
N1102 	G01 	X13.95746 	Y10.89658 	Z2.03089
N1103 	G01 	X13.37562 	Y10.89658 	Z2.05059
N1104 	G01 	X12.79511 	Y10.89658 	Z2.06817
N1105 	G01 	X12.21600 	Y10.89658 	Z2.08343
N1106 	G01 	X11.63833 	Y10.89658 	Z2.09615
N1107 	G01 	X11.06214 	Y10.89658 	Z2.10613
N1108 	G01 	X10.48750 	Y10.89658 	Z2.11314
N1109 	G01 	X9.91443 	Y10.89658 	Z2.11699
N1110 	G01 	X9.34300 	Y10.89658 	Z2.11745
N1111 	G01 	X8.77325 	Y10.89658 	Z2.11432
N1112 	G01 	X8.20522 	Y10.89658 	Z2.10738
N1113 	G01 	X7.63898 	Y10.89658 	Z2.09642
N1114 	G01 	X7.07455 	Y10.89658 	Z2.08123
N1115 	G01 	X6.51200 	Y10.89658 	Z2.06160
N1116 	G01 	X5.95137 	Y10.89658 	Z2.03732
N1117 	G01 	X5.39270 	Y10.89658 	Z2.00817
N1118 	G01 	X4.83606 	Y10.89658 	Z1.97395
N1119 	G01 	X4.28147 	Y10.89658 	Z1.93444
N1120 	G01 	X3.72900 	Y10.89658 	Z1.88943
N1121 	G01 	X3.17869 	Y10.89658 	Z1.83871
N1122 	G01 	X2.63058 	Y10.89658 	Z1.78206
N1123 	G01 	X2.08474 	Y10.89658 	Z1.71928
N1124 	G01 	X1.54119 	Y10.89658 	Z1.65016
N1125 	G01 	X1.00000 	Y10.89658 	Z1.57447

N1126 	G01 	X1.00000 	Y11.17737 	Z1.60028
N1127 	G01 	X1.54119 	Y11.17737 	Z1.67387
N1128 	G01 	X2.08474 	Y11.17737 	Z1.74103
N1129 	G01 	X2.63058 	Y11.17737 	Z1.80198
N1130 	G01 	X3.17869 	Y11.17737 	Z1.85692
N1131 	G01 	X3.72900 	Y11.17737 	Z1.90606
N1132 	G01 	X4.28147 	Y11.17737 	Z1.94960
N1133 	G01 	X4.83606 	Y11.17737 	Z1.98776
N1134 	G01 	X5.39270 	Y11.17737 	Z2.02074
N1135 	G01 	X5.95137 	Y11.17737 	Z2.04875
N1136 	G01 	X6.51200 	Y11.17737 	Z2.07201
N1137 	G01 	X7.07455 	Y11.17737 	Z2.09071
N1138 	G01 	X7.63898 	Y11.17737 	Z2.10507
N1139 	G01 	X8.20522 	Y11.17737 	Z2.11529
N1140 	G01 	X8.77325 	Y11.17737 	Z2.12159
N1141 	G01 	X9.34300 	Y11.17737 	Z2.12417
N1142 	G01 	X9.91443 	Y11.17737 	Z2.12323
N1143 	G01 	X10.48750 	Y11.17737 	Z2.11900
N1144 	G01 	X11.06214 	Y11.17737 	Z2.11167
N1145 	G01 	X11.63833 	Y11.17737 	Z2.10146
N1146 	G01 	X12.21600 	Y11.17737 	Z2.08857
N1147 	G01 	X12.79511 	Y11.17737 	Z2.07322
N1148 	G01 	X13.37562 	Y11.17737 	Z2.05560
N1149 	G01 	X13.95746 	Y11.17737 	Z2.03593
N1150 	G01 	X14.54061 	Y11.17737 	Z2.01442
N1151 	G01 	X15.12500 	Y11.17737 	Z1.99127
N1152 	G01 	X15.71059 	Y11.17737 	Z1.96670
N1153 	G01 	X16.29734 	Y11.17737 	Z1.94091
N1154 	G01 	X16.88518 	Y11.17737 	Z1.91410
N1155 	G01 	X17.47409 	Y11.17737 	Z1.88650
N1156 	G01 	X18.06400 	Y11.17737 	Z1.85830
N1157 	G01 	X18.65487 	Y11.17737 	Z1.82972
N1158 	G01 	X19.24666 	Y11.17737 	Z1.80096
N1159 	G01 	X19.83930 	Y11.17737 	Z1.77223
N1160 	G01 	X20.43277 	Y11.17737 	Z1.74374
N1161 	G01 	X21.02700 	Y11.17737 	Z1.71570
N1162 	G01 	X21.62195 	Y11.17737 	Z1.68832
N1163 	G01 	X22.21758 	Y11.17737 	Z1.66180
N1164 	G01 	X22.81382 	Y11.17737 	Z1.63636
N1165 	G01 	X23.41065 	Y11.17737 	Z1.61219
N1166 	G01 	X24.00800 	Y11.17737 	Z1.58952
N1167 	G01 	X24.60583 	Y11.17737 	Z1.56854
N1168 	G01 	X25.20410 	Y11.17737 	Z1.54947
N1169 	G01 	X25.80274 	Y11.17737 	Z1.53251
N1170 	G01 	X26.40173 	Y11.17737 	Z1.51788
N1171 	G01 	X27.00100 	Y11.17737 	Z1.50578
N1172 	G01 	X27.60051 	Y11.17737 	Z1.49642
N1173 	G01 	X28.20022 	Y11.17737 	Z1.49001
N1174 	G01 	X28.80006 	Y11.17737 	Z1.48675
N1175 	G01 	X29.40001 	Y11.17737 	Z1.48686
N1176 	G01 	X30.00000 	Y11.17737 	Z1.49054

N1177 	G01 	X30.00000 	Y11.45816 	Z1.50679
N1178 	G01 	X29.40001 	Y11.45816 	Z1.50268
N1179 	G01 	X28.80006 	Y11.45816 	Z1.50212
N1180 	G01 	X28.20022 	Y11.45816 	Z1.50490
N1181 	G01 	X27.60051 	Y11.45816 	Z1.51081
N1182 	G01 	X27.00100 	Y11.45816 	Z1.51965
N1183 	G01 	X26.40173 	Y11.45816 	Z1.53122
N1184 	G01 	X25.80274 	Y11.45816 	Z1.54531
N1185 	G01 	X25.20410 	Y11.45816 	Z1.56171
N1186 	G01 	X24.60583 	Y11.45816 	Z1.58022
N1187 	G01 	X24.00800 	Y11.45816 	Z1.60064
N1188 	G01 	X23.41065 	Y11.45816 	Z1.62276
N1189 	G01 	X22.81382 	Y11.45816 	Z1.64637
N1190 	G01 	X22.21758 	Y11.45816 	Z1.67127
N1191 	G01 	X21.62195 	Y11.45816 	Z1.69725
N1192 	G01 	X21.02700 	Y11.45816 	Z1.72412
N1193 	G01 	X20.43277 	Y11.45816 	Z1.75166
N1194 	G01 	X19.83930 	Y11.45816 	Z1.77967
N1195 	G01 	X19.24666 	Y11.45816 	Z1.80794
N1196 	G01 	X18.65487 	Y11.45816 	Z1.83628
N1197 	G01 	X18.06400 	Y11.45816 	Z1.86447
N1198 	G01 	X17.47409 	Y11.45816 	Z1.89231
N1199 	G01 	X16.88518 	Y11.45816 	Z1.91959
N1200 	G01 	X16.29734 	Y11.45816 	Z1.94612
N1201 	G01 	X15.71059 	Y11.45816 	Z1.97167
N1202 	G01 	X15.12500 	Y11.45816 	Z1.99606
N1203 	G01 	X14.54061 	Y11.45816 	Z2.01908
N1204 	G01 	X13.95746 	Y11.45816 	Z2.04051
N1205 	G01 	X13.37562 	Y11.45816 	Z2.06016
N1206 	G01 	X12.79511 	Y11.45816 	Z2.07782
N1207 	G01 	X12.21600 	Y11.45816 	Z2.09328
N1208 	G01 	X11.63833 	Y11.45816 	Z2.10634
N1209 	G01 	X11.06214 	Y11.45816 	Z2.11680
N1210 	G01 	X10.48750 	Y11.45816 	Z2.12445
N1211 	G01 	X9.91443 	Y11.45816 	Z2.12908
N1212 	G01 	X9.34300 	Y11.45816 	Z2.13049
N1213 	G01 	X8.77325 	Y11.45816 	Z2.12848
N1214 	G01 	X8.20522 	Y11.45816 	Z2.12284
N1215 	G01 	X7.63898 	Y11.45816 	Z2.11336
N1216 	G01 	X7.07455 	Y11.45816 	Z2.09984
N1217 	G01 	X6.51200 	Y11.45816 	Z2.08208
N1218 	G01 	X5.95137 	Y11.45816 	Z2.05986
N1219 	G01 	X5.39270 	Y11.45816 	Z2.03300
N1220 	G01 	X4.83606 	Y11.45816 	Z2.00127
N1221 	G01 	X4.28147 	Y11.45816 	Z1.96447
N1222 	G01 	X3.72900 	Y11.45816 	Z1.92241
N1223 	G01 	X3.17869 	Y11.45816 	Z1.87487
N1224 	G01 	X2.63058 	Y11.45816 	Z1.82165
N1225 	G01 	X2.08474 	Y11.45816 	Z1.76255
N1226 	G01 	X1.54119 	Y11.45816 	Z1.69735
N1227 	G01 	X1.00000 	Y11.45816 	Z1.62586

N1228 	G01 	X1.00000 	Y11.73895 	Z1.65123
N1229 	G01 	X1.54119 	Y11.73895 	Z1.72060
N1230 	G01 	X2.08474 	Y11.73895 	Z1.78381
N1231 	G01 	X2.63058 	Y11.73895 	Z1.84106
N1232 	G01 	X3.17869 	Y11.73895 	Z1.89255
N1233 	G01 	X3.72900 	Y11.73895 	Z1.93848
N1234 	G01 	X4.28147 	Y11.73895 	Z1.97905
N1235 	G01 	X4.83606 	Y11.73895 	Z2.01447
N1236 	G01 	X5.39270 	Y11.73895 	Z2.04494
N1237 	G01 	X5.95137 	Y11.73895 	Z2.07065
N1238 	G01 	X6.51200 	Y11.73895 	Z2.09181
N1239 	G01 	X7.07455 	Y11.73895 	Z2.10863
N1240 	G01 	X7.63898 	Y11.73895 	Z2.12129
N1241 	G01 	X8.20522 	Y11.73895 	Z2.13002
N1242 	G01 	X8.77325 	Y11.73895 	Z2.13500
N1243 	G01 	X9.34300 	Y11.73895 	Z2.13643
N1244 	G01 	X9.91443 	Y11.73895 	Z2.13453
N1245 	G01 	X10.48750 	Y11.73895 	Z2.12949
N1246 	G01 	X11.06214 	Y11.73895 	Z2.12151
N1247 	G01 	X11.63833 	Y11.73895 	Z2.11080
N1248 	G01 	X12.21600 	Y11.73895 	Z2.09755
N1249 	G01 	X12.79511 	Y11.73895 	Z2.08197
N1250 	G01 	X13.37562 	Y11.73895 	Z2.06427
N1251 	G01 	X13.95746 	Y11.73895 	Z2.04463
N1252 	G01 	X14.54061 	Y11.73895 	Z2.02327
N1253 	G01 	X15.12500 	Y11.73895 	Z2.00038
N1254 	G01 	X15.71059 	Y11.73895 	Z1.97617
N1255 	G01 	X16.29734 	Y11.73895 	Z1.95084
N1256 	G01 	X16.88518 	Y11.73895 	Z1.92459
N1257 	G01 	X17.47409 	Y11.73895 	Z1.89761
N1258 	G01 	X18.06400 	Y11.73895 	Z1.87013
N1259 	G01 	X18.65487 	Y11.73895 	Z1.84233
N1260 	G01 	X19.24666 	Y11.73895 	Z1.81441
N1261 	G01 	X19.83930 	Y11.73895 	Z1.78659
N1262 	G01 	X20.43277 	Y11.73895 	Z1.75905
N1263 	G01 	X21.02700 	Y11.73895 	Z1.73200
N1264 	G01 	X21.62195 	Y11.73895 	Z1.70565
N1265 	G01 	X22.21758 	Y11.73895 	Z1.68020
N1266 	G01 	X22.81382 	Y11.73895 	Z1.65584
N1267 	G01 	X23.41065 	Y11.73895 	Z1.63278
N1268 	G01 	X24.00800 	Y11.73895 	Z1.61122
N1269 	G01 	X24.60583 	Y11.73895 	Z1.59136
N1270 	G01 	X25.20410 	Y11.73895 	Z1.57341
N1271 	G01 	X25.80274 	Y11.73895 	Z1.55756
N1272 	G01 	X26.40173 	Y11.73895 	Z1.54402
N1273 	G01 	X27.00100 	Y11.73895 	Z1.53299
N1274 	G01 	X27.60051 	Y11.73895 	Z1.52467
N1275 	G01 	X28.20022 	Y11.73895 	Z1.51926
N1276 	G01 	X28.80006 	Y11.73895 	Z1.51696
N1277 	G01 	X29.40001 	Y11.73895 	Z1.51798
N1278 	G01 	X30.00000 	Y11.73895 	Z1.52252

N1279 	G01 	X30.00000 	Y12.01974 	Z1.53772
N1280 	G01 	X29.40001 	Y12.01974 	Z1.53275
N1281 	G01 	X28.80006 	Y12.01974 	Z1.53127
N1282 	G01 	X28.20022 	Y12.01974 	Z1.53308
N1283 	G01 	X27.60051 	Y12.01974 	Z1.53799
N1284 	G01 	X27.00100 	Y12.01974 	Z1.54579
N1285 	G01 	X26.40173 	Y12.01974 	Z1.55629
N1286 	G01 	X25.80274 	Y12.01974 	Z1.56928
N1287 	G01 	X25.20410 	Y12.01974 	Z1.58458
N1288 	G01 	X24.60583 	Y12.01974 	Z1.60197
N1289 	G01 	X24.00800 	Y12.01974 	Z1.62127
N1290 	G01 	X23.41065 	Y12.01974 	Z1.64228
N1291 	G01 	X22.81382 	Y12.01974 	Z1.66479
N1292 	G01 	X22.21758 	Y12.01974 	Z1.68861
N1293 	G01 	X21.62195 	Y12.01974 	Z1.71353
N1294 	G01 	X21.02700 	Y12.01974 	Z1.73937
N1295 	G01 	X20.43277 	Y12.01974 	Z1.76592
N1296 	G01 	X19.83930 	Y12.01974 	Z1.79299
N1297 	G01 	X19.24666 	Y12.01974 	Z1.82037
N1298 	G01 	X18.65487 	Y12.01974 	Z1.84787
N1299 	G01 	X18.06400 	Y12.01974 	Z1.87529
N1300 	G01 	X17.47409 	Y12.01974 	Z1.90243
N1301 	G01 	X16.88518 	Y12.01974 	Z1.92909
N1302 	G01 	X16.29734 	Y12.01974 	Z1.95508
N1303 	G01 	X15.71059 	Y12.01974 	Z1.98019
N1304 	G01 	X15.12500 	Y12.01974 	Z2.00423
N1305 	G01 	X14.54061 	Y12.01974 	Z2.02700
N1306 	G01 	X13.95746 	Y12.01974 	Z2.04830
N1307 	G01 	X13.37562 	Y12.01974 	Z2.06793
N1308 	G01 	X12.79511 	Y12.01974 	Z2.08570
N1309 	G01 	X12.21600 	Y12.01974 	Z2.10140
N1310 	G01 	X11.63833 	Y12.01974 	Z2.11484
N1311 	G01 	X11.06214 	Y12.01974 	Z2.12581
N1312 	G01 	X10.48750 	Y12.01974 	Z2.13413
N1313 	G01 	X9.91443 	Y12.01974 	Z2.13959
N1314 	G01 	X9.34300 	Y12.01974 	Z2.14199
N1315 	G01 	X8.77325 	Y12.01974 	Z2.14114
N1316 	G01 	X8.20522 	Y12.01974 	Z2.13683
N1317 	G01 	X7.63898 	Y12.01974 	Z2.12887
N1318 	G01 	X7.07455 	Y12.01974 	Z2.11707
N1319 	G01 	X6.51200 	Y12.01974 	Z2.10121
N1320 	G01 	X5.95137 	Y12.01974 	Z2.08111
N1321 	G01 	X5.39270 	Y12.01974 	Z2.05656
N1322 	G01 	X4.83606 	Y12.01974 	Z2.02737
N1323 	G01 	X4.28147 	Y12.01974 	Z1.99334
N1324 	G01 	X3.72900 	Y12.01974 	Z1.95426
N1325 	G01 	X3.17869 	Y12.01974 	Z1.90995
N1326 	G01 	X2.63058 	Y12.01974 	Z1.86020
N1327 	G01 	X2.08474 	Y12.01974 	Z1.80482
N1328 	G01 	X1.54119 	Y12.01974 	Z1.74360
N1329 	G01 	X1.00000 	Y12.01974 	Z1.67635

N1330 	G01 	X1.00000 	Y12.30053 	Z1.70123
N1331 	G01 	X1.54119 	Y12.30053 	Z1.76635
N1332 	G01 	X2.08474 	Y12.30053 	Z1.82556
N1333 	G01 	X2.63058 	Y12.30053 	Z1.87907
N1334 	G01 	X3.17869 	Y12.30053 	Z1.92707
N1335 	G01 	X3.72900 	Y12.30053 	Z1.96975
N1336 	G01 	X4.28147 	Y12.30053 	Z2.00732
N1337 	G01 	X4.83606 	Y12.30053 	Z2.03996
N1338 	G01 	X5.39270 	Y12.30053 	Z2.06786
N1339 	G01 	X5.95137 	Y12.30053 	Z2.09124
N1340 	G01 	X6.51200 	Y12.30053 	Z2.11027
N1341 	G01 	X7.07455 	Y12.30053 	Z2.12516
N1342 	G01 	X7.63898 	Y12.30053 	Z2.13610
N1343 	G01 	X8.20522 	Y12.30053 	Z2.14328
N1344 	G01 	X8.77325 	Y12.30053 	Z2.14690
N1345 	G01 	X9.34300 	Y12.30053 	Z2.14716
N1346 	G01 	X9.91443 	Y12.30053 	Z2.14425
N1347 	G01 	X10.48750 	Y12.30053 	Z2.13837
N1348 	G01 	X11.06214 	Y12.30053 	Z2.12971
N1349 	G01 	X11.63833 	Y12.30053 	Z2.11846
N1350 	G01 	X12.21600 	Y12.30053 	Z2.10482
N1351 	G01 	X12.79511 	Y12.30053 	Z2.08899
N1352 	G01 	X13.37562 	Y12.30053 	Z2.07116
N1353 	G01 	X13.95746 	Y12.30053 	Z2.05153
N1354 	G01 	X14.54061 	Y12.30053 	Z2.03028
N1355 	G01 	X15.12500 	Y12.30053 	Z2.00763
N1356 	G01 	X15.71059 	Y12.30053 	Z1.98375
N1357 	G01 	X16.29734 	Y12.30053 	Z1.95885
N1358 	G01 	X16.88518 	Y12.30053 	Z1.93313
N1359 	G01 	X17.47409 	Y12.30053 	Z1.90677
N1360 	G01 	X18.06400 	Y12.30053 	Z1.87997
N1361 	G01 	X18.65487 	Y12.30053 	Z1.85293
N1362 	G01 	X19.24666 	Y12.30053 	Z1.82584
N1363 	G01 	X19.83930 	Y12.30053 	Z1.79889
N1364 	G01 	X20.43277 	Y12.30053 	Z1.77229
N1365 	G01 	X21.02700 	Y12.30053 	Z1.74623
N1366 	G01 	X21.62195 	Y12.30053 	Z1.72090
N1367 	G01 	X22.21758 	Y12.30053 	Z1.69649
N1368 	G01 	X22.81382 	Y12.30053 	Z1.67321
N1369 	G01 	X23.41065 	Y12.30053 	Z1.65125
N1370 	G01 	X24.00800 	Y12.30053 	Z1.63080
N1371 	G01 	X24.60583 	Y12.30053 	Z1.61205
N1372 	G01 	X25.20410 	Y12.30053 	Z1.59521
N1373 	G01 	X25.80274 	Y12.30053 	Z1.58047
N1374 	G01 	X26.40173 	Y12.30053 	Z1.56802
N1375 	G01 	X27.00100 	Y12.30053 	Z1.55806
N1376 	G01 	X27.60051 	Y12.30053 	Z1.55078
N1377 	G01 	X28.20022 	Y12.30053 	Z1.54638
N1378 	G01 	X28.80006 	Y12.30053 	Z1.54505
N1379 	G01 	X29.40001 	Y12.30053 	Z1.54699
N1380 	G01 	X30.00000 	Y12.30053 	Z1.55239

N1381 	G01 	X30.00000 	Y12.58132 	Z1.56654
N1382 	G01 	X29.40001 	Y12.58132 	Z1.56070
N1383 	G01 	X28.80006 	Y12.58132 	Z1.55830
N1384 	G01 	X28.20022 	Y12.58132 	Z1.55915
N1385 	G01 	X27.60051 	Y12.58132 	Z1.56304
N1386 	G01 	X27.00100 	Y12.58132 	Z1.56980
N1387 	G01 	X26.40173 	Y12.58132 	Z1.57923
N1388 	G01 	X25.80274 	Y12.58132 	Z1.59114
N1389 	G01 	X25.20410 	Y12.58132 	Z1.60533
N1390 	G01 	X24.60583 	Y12.58132 	Z1.62162
N1391 	G01 	X24.00800 	Y12.58132 	Z1.63981
N1392 	G01 	X23.41065 	Y12.58132 	Z1.65971
N1393 	G01 	X22.81382 	Y12.58132 	Z1.68113
N1394 	G01 	X22.21758 	Y12.58132 	Z1.70388
N1395 	G01 	X21.62195 	Y12.58132 	Z1.72776
N1396 	G01 	X21.02700 	Y12.58132 	Z1.75259
N1397 	G01 	X20.43277 	Y12.58132 	Z1.77817
N1398 	G01 	X19.83930 	Y12.58132 	Z1.80431
N1399 	G01 	X19.24666 	Y12.58132 	Z1.83081
N1400 	G01 	X18.65487 	Y12.58132 	Z1.85750
N1401 	G01 	X18.06400 	Y12.58132 	Z1.88417
N1402 	G01 	X17.47409 	Y12.58132 	Z1.91063
N1403 	G01 	X16.88518 	Y12.58132 	Z1.93669
N1404 	G01 	X16.29734 	Y12.58132 	Z1.96217
N1405 	G01 	X15.71059 	Y12.58132 	Z1.98686
N1406 	G01 	X15.12500 	Y12.58132 	Z2.01057
N1407 	G01 	X14.54061 	Y12.58132 	Z2.03312
N1408 	G01 	X13.95746 	Y12.58132 	Z2.05432
N1409 	G01 	X13.37562 	Y12.58132 	Z2.07396
N1410 	G01 	X12.79511 	Y12.58132 	Z2.09186
N1411 	G01 	X12.21600 	Y12.58132 	Z2.10783
N1412 	G01 	X11.63833 	Y12.58132 	Z2.12167
N1413 	G01 	X11.06214 	Y12.58132 	Z2.13320
N1414 	G01 	X10.48750 	Y12.58132 	Z2.14222
N1415 	G01 	X9.91443 	Y12.58132 	Z2.14853
N1416 	G01 	X9.34300 	Y12.58132 	Z2.15196
N1417 	G01 	X8.77325 	Y12.58132 	Z2.15230
N1418 	G01 	X8.20522 	Y12.58132 	Z2.14937
N1419 	G01 	X7.63898 	Y12.58132 	Z2.14296
N1420 	G01 	X7.07455 	Y12.58132 	Z2.13290
N1421 	G01 	X6.51200 	Y12.58132 	Z2.11899
N1422 	G01 	X5.95137 	Y12.58132 	Z2.10103
N1423 	G01 	X5.39270 	Y12.58132 	Z2.07884
N1424 	G01 	X4.83606 	Y12.58132 	Z2.05223
N1425 	G01 	X4.28147 	Y12.58132 	Z2.02099
N1426 	G01 	X3.72900 	Y12.58132 	Z1.98495
N1427 	G01 	X3.17869 	Y12.58132 	Z1.94390
N1428 	G01 	X2.63058 	Y12.58132 	Z1.89766
N1429 	G01 	X2.08474 	Y12.58132 	Z1.84603
N1430 	G01 	X1.54119 	Y12.58132 	Z1.78883
N1431 	G01 	X1.00000 	Y12.58132 	Z1.72585

N1432 	G01 	X1.00000 	Y12.86211 	Z1.75021
N1433 	G01 	X1.54119 	Y12.86211 	Z1.81104
N1434 	G01 	X2.08474 	Y12.86211 	Z1.86622
N1435 	G01 	X2.63058 	Y12.86211 	Z1.91596
N1436 	G01 	X3.17869 	Y12.86211 	Z1.96043
N1437 	G01 	X3.72900 	Y12.86211 	Z1.99984
N1438 	G01 	X4.28147 	Y12.86211 	Z2.03436
N1439 	G01 	X4.83606 	Y12.86211 	Z2.06418
N1440 	G01 	X5.39270 	Y12.86211 	Z2.08950
N1441 	G01 	X5.95137 	Y12.86211 	Z2.11050
N1442 	G01 	X6.51200 	Y12.86211 	Z2.12737
N1443 	G01 	X7.07455 	Y12.86211 	Z2.14030
N1444 	G01 	X7.63898 	Y12.86211 	Z2.14948
N1445 	G01 	X8.20522 	Y12.86211 	Z2.15509
N1446 	G01 	X8.77325 	Y12.86211 	Z2.15733
N1447 	G01 	X9.34300 	Y12.86211 	Z2.15638
N1448 	G01 	X9.91443 	Y12.86211 	Z2.15243
N1449 	G01 	X10.48750 	Y12.86211 	Z2.14567
N1450 	G01 	X11.06214 	Y12.86211 	Z2.13629
N1451 	G01 	X11.63833 	Y12.86211 	Z2.12448
N1452 	G01 	X12.21600 	Y12.86211 	Z2.11043
N1453 	G01 	X12.79511 	Y12.86211 	Z2.09431
N1454 	G01 	X13.37562 	Y12.86211 	Z2.07633
N1455 	G01 	X13.95746 	Y12.86211 	Z2.05668
N1456 	G01 	X14.54061 	Y12.86211 	Z2.03553
N1457 	G01 	X15.12500 	Y12.86211 	Z2.01308
N1458 	G01 	X15.71059 	Y12.86211 	Z1.98951
N1459 	G01 	X16.29734 	Y12.86211 	Z1.96503
N1460 	G01 	X16.88518 	Y12.86211 	Z1.93980
N1461 	G01 	X17.47409 	Y12.86211 	Z1.91403
N1462 	G01 	X18.06400 	Y12.86211 	Z1.88790
N1463 	G01 	X18.65487 	Y12.86211 	Z1.86160
N1464 	G01 	X19.24666 	Y12.86211 	Z1.83531
N1465 	G01 	X19.83930 	Y12.86211 	Z1.80924
N1466 	G01 	X20.43277 	Y12.86211 	Z1.78355
N1467 	G01 	X21.02700 	Y12.86211 	Z1.75845
N1468 	G01 	X21.62195 	Y12.86211 	Z1.73413
N1469 	G01 	X22.21758 	Y12.86211 	Z1.71076
N1470 	G01 	X22.81382 	Y12.86211 	Z1.68854
N1471 	G01 	X23.41065 	Y12.86211 	Z1.66766
N1472 	G01 	X24.00800 	Y12.86211 	Z1.64831
N1473 	G01 	X24.60583 	Y12.86211 	Z1.63067
N1474 	G01 	X25.20410 	Y12.86211 	Z1.61493
N1475 	G01 	X25.80274 	Y12.86211 	Z1.60129
N1476 	G01 	X26.40173 	Y12.86211 	Z1.58992
N1477 	G01 	X27.00100 	Y12.86211 	Z1.58102
N1478 	G01 	X27.60051 	Y12.86211 	Z1.57478
N1479 	G01 	X28.20022 	Y12.86211 	Z1.57139
N1480 	G01 	X28.80006 	Y12.86211 	Z1.57103
N1481 	G01 	X29.40001 	Y12.86211 	Z1.57389
N1482 	G01 	X30.00000 	Y12.86211 	Z1.58017

N1483 	G01 	X30.00000 	Y13.14290 	Z1.59327
N1484 	G01 	X29.40001 	Y13.14290 	Z1.58656
N1485 	G01 	X28.80006 	Y13.14290 	Z1.58324
N1486 	G01 	X28.20022 	Y13.14290 	Z1.58312
N1487 	G01 	X27.60051 	Y13.14290 	Z1.58601
N1488 	G01 	X27.00100 	Y13.14290 	Z1.59173
N1489 	G01 	X26.40173 	Y13.14290 	Z1.60010
N1490 	G01 	X25.80274 	Y13.14290 	Z1.61092
N1491 	G01 	X25.20410 	Y13.14290 	Z1.62403
N1492 	G01 	X24.60583 	Y13.14290 	Z1.63921
N1493 	G01 	X24.00800 	Y13.14290 	Z1.65631
N1494 	G01 	X23.41065 	Y13.14290 	Z1.67512
N1495 	G01 	X22.81382 	Y13.14290 	Z1.69546
N1496 	G01 	X22.21758 	Y13.14290 	Z1.71715
N1497 	G01 	X21.62195 	Y13.14290 	Z1.74001
N1498 	G01 	X21.02700 	Y13.14290 	Z1.76384
N1499 	G01 	X20.43277 	Y13.14290 	Z1.78846
N1500 	G01 	X19.83930 	Y13.14290 	Z1.81369
N1501 	G01 	X19.24666 	Y13.14290 	Z1.83934
N1502 	G01 	X18.65487 	Y13.14290 	Z1.86523
N1503 	G01 	X18.06400 	Y13.14290 	Z1.89117
N1504 	G01 	X17.47409 	Y13.14290 	Z1.91698
N1505 	G01 	X16.88518 	Y13.14290 	Z1.94246
N1506 	G01 	X16.29734 	Y13.14290 	Z1.96744
N1507 	G01 	X15.71059 	Y13.14290 	Z1.99173
N1508 	G01 	X15.12500 	Y13.14290 	Z2.01515
N1509 	G01 	X14.54061 	Y13.14290 	Z2.03750
N1510 	G01 	X13.95746 	Y13.14290 	Z2.05861
N1511 	G01 	X13.37562 	Y13.14290 	Z2.07829
N1512 	G01 	X12.79511 	Y13.14290 	Z2.09636
N1513 	G01 	X12.21600 	Y13.14290 	Z2.11262
N1514 	G01 	X11.63833 	Y13.14290 	Z2.12689
N1515 	G01 	X11.06214 	Y13.14290 	Z2.13900
N1516 	G01 	X10.48750 	Y13.14290 	Z2.14874
N1517 	G01 	X9.91443 	Y13.14290 	Z2.15595
N1518 	G01 	X9.34300 	Y13.14290 	Z2.16042
N1519 	G01 	X8.77325 	Y13.14290 	Z2.16198
N1520 	G01 	X8.20522 	Y13.14290 	Z2.16045
N1521 	G01 	X7.63898 	Y13.14290 	Z2.15563
N1522 	G01 	X7.07455 	Y13.14290 	Z2.14735
N1523 	G01 	X6.51200 	Y13.14290 	Z2.13541
N1524 	G01 	X5.95137 	Y13.14290 	Z2.11963
N1525 	G01 	X5.39270 	Y13.14290 	Z2.09982
N1526 	G01 	X4.83606 	Y13.14290 	Z2.07581
N1527 	G01 	X4.28147 	Y13.14290 	Z2.04740
N1528 	G01 	X3.72900 	Y13.14290 	Z2.01442
N1529 	G01 	X3.17869 	Y13.14290 	Z1.97666
N1530 	G01 	X2.63058 	Y13.14290 	Z1.93396
N1531 	G01 	X2.08474 	Y13.14290 	Z1.88612
N1532 	G01 	X1.54119 	Y13.14290 	Z1.83296
N1533 	G01 	X1.00000 	Y13.14290 	Z1.77430

N1534 	G01 	X1.00000 	Y13.42369 	Z1.79809
N1535 	G01 	X1.54119 	Y13.42369 	Z1.85460
N1536 	G01 	X2.08474 	Y13.42369 	Z1.90572
N1537 	G01 	X2.63058 	Y13.42369 	Z1.95166
N1538 	G01 	X3.17869 	Y13.42369 	Z1.99258
N1539 	G01 	X3.72900 	Y13.42369 	Z2.02868
N1540 	G01 	X4.28147 	Y13.42369 	Z2.06013
N1541 	G01 	X4.83606 	Y13.42369 	Z2.08711
N1542 	G01 	X5.39270 	Y13.42369 	Z2.10982
N1543 	G01 	X5.95137 	Y13.42369 	Z2.12842
N1544 	G01 	X6.51200 	Y13.42369 	Z2.14310
N1545 	G01 	X7.07455 	Y13.42369 	Z2.15404
N1546 	G01 	X7.63898 	Y13.42369 	Z2.16143
N1547 	G01 	X8.20522 	Y13.42369 	Z2.16545
N1548 	G01 	X8.77325 	Y13.42369 	Z2.16628
N1549 	G01 	X9.34300 	Y13.42369 	Z2.16409
N1550 	G01 	X9.91443 	Y13.42369 	Z2.15908
N1551 	G01 	X10.48750 	Y13.42369 	Z2.15143
N1552 	G01 	X11.06214 	Y13.42369 	Z2.14131
N1553 	G01 	X11.63833 	Y13.42369 	Z2.12891
N1554 	G01 	X12.21600 	Y13.42369 	Z2.11441
N1555 	G01 	X12.79511 	Y13.42369 	Z2.09799
N1556 	G01 	X13.37562 	Y13.42369 	Z2.07984
N1557 	G01 	X13.95746 	Y13.42369 	Z2.06014
N1558 	G01 	X14.54061 	Y13.42369 	Z2.03906
N1559 	G01 	X15.12500 	Y13.42369 	Z2.01679
N1560 	G01 	X15.71059 	Y13.42369 	Z1.99352
N1561 	G01 	X16.29734 	Y13.42369 	Z1.96942
N1562 	G01 	X16.88518 	Y13.42369 	Z1.94468
N1563 	G01 	X17.47409 	Y13.42369 	Z1.91948
N1564 	G01 	X18.06400 	Y13.42369 	Z1.89399
N1565 	G01 	X18.65487 	Y13.42369 	Z1.86841
N1566 	G01 	X19.24666 	Y13.42369 	Z1.84291
N1567 	G01 	X19.83930 	Y13.42369 	Z1.81768
N1568 	G01 	X20.43277 	Y13.42369 	Z1.79290
N1569 	G01 	X21.02700 	Y13.42369 	Z1.76875
N1570 	G01 	X21.62195 	Y13.42369 	Z1.74541
N1571 	G01 	X22.21758 	Y13.42369 	Z1.72307
N1572 	G01 	X22.81382 	Y13.42369 	Z1.70190
N1573 	G01 	X23.41065 	Y13.42369 	Z1.68208
N1574 	G01 	X24.00800 	Y13.42369 	Z1.66381
N1575 	G01 	X24.60583 	Y13.42369 	Z1.64726
N1576 	G01 	X25.20410 	Y13.42369 	Z1.63262
N1577 	G01 	X25.80274 	Y13.42369 	Z1.62006
N1578 	G01 	X26.40173 	Y13.42369 	Z1.60977
N1579 	G01 	X27.00100 	Y13.42369 	Z1.60193
N1580 	G01 	X27.60051 	Y13.42369 	Z1.59672
N1581 	G01 	X28.20022 	Y13.42369 	Z1.59432
N1582 	G01 	X28.80006 	Y13.42369 	Z1.59492
N1583 	G01 	X29.40001 	Y13.42369 	Z1.59870
N1584 	G01 	X30.00000 	Y13.42369 	Z1.60584

N1585 	G01 	X30.00000 	Y13.70448 	Z1.61789
N1586 	G01 	X29.40001 	Y13.70448 	Z1.61032
N1587 	G01 	X28.80006 	Y13.70448 	Z1.60609
N1588 	G01 	X28.20022 	Y13.70448 	Z1.60502
N1589 	G01 	X27.60051 	Y13.70448 	Z1.60692
N1590 	G01 	X27.00100 	Y13.70448 	Z1.61162
N1591 	G01 	X26.40173 	Y13.70448 	Z1.61894
N1592 	G01 	X25.80274 	Y13.70448 	Z1.62870
N1593 	G01 	X25.20410 	Y13.70448 	Z1.64072
N1594 	G01 	X24.60583 	Y13.70448 	Z1.65483
N1595 	G01 	X24.00800 	Y13.70448 	Z1.67084
N1596 	G01 	X23.41065 	Y13.70448 	Z1.68857
N1597 	G01 	X22.81382 	Y13.70448 	Z1.70785
N1598 	G01 	X22.21758 	Y13.70448 	Z1.72851
N1599 	G01 	X21.62195 	Y13.70448 	Z1.75035
N1600 	G01 	X21.02700 	Y13.70448 	Z1.77320
N1601 	G01 	X20.43277 	Y13.70448 	Z1.79688
N1602 	G01 	X19.83930 	Y13.70448 	Z1.82122
N1603 	G01 	X19.24666 	Y13.70448 	Z1.84604
N1604 	G01 	X18.65487 	Y13.70448 	Z1.87115
N1605 	G01 	X18.06400 	Y13.70448 	Z1.89637
N1606 	G01 	X17.47409 	Y13.70448 	Z1.92154
N1607 	G01 	X16.88518 	Y13.70448 	Z1.94647
N1608 	G01 	X16.29734 	Y13.70448 	Z1.97098
N1609 	G01 	X15.71059 	Y13.70448 	Z1.99489
N1610 	G01 	X15.12500 	Y13.70448 	Z2.01802
N1611 	G01 	X14.54061 	Y13.70448 	Z2.04020
N1612 	G01 	X13.95746 	Y13.70448 	Z2.06125
N1613 	G01 	X13.37562 	Y13.70448 	Z2.08099
N1614 	G01 	X12.79511 	Y13.70448 	Z2.09923
N1615 	G01 	X12.21600 	Y13.70448 	Z2.11581
N1616 	G01 	X11.63833 	Y13.70448 	Z2.13054
N1617 	G01 	X11.06214 	Y13.70448 	Z2.14324
N1618 	G01 	X10.48750 	Y13.70448 	Z2.15374
N1619 	G01 	X9.91443 	Y13.70448 	Z2.16185
N1620 	G01 	X9.34300 	Y13.70448 	Z2.16740
N1621 	G01 	X8.77325 	Y13.70448 	Z2.17020
N1622 	G01 	X8.20522 	Y13.70448 	Z2.17009
N1623 	G01 	X7.63898 	Y13.70448 	Z2.16688
N1624 	G01 	X7.07455 	Y13.70448 	Z2.16039
N1625 	G01 	X6.51200 	Y13.70448 	Z2.15045
N1626 	G01 	X5.95137 	Y13.70448 	Z2.13687
N1627 	G01 	X5.39270 	Y13.70448 	Z2.11947
N1628 	G01 	X4.83606 	Y13.70448 	Z2.09809
N1629 	G01 	X4.28147 	Y13.70448 	Z2.07253
N1630 	G01 	X3.72900 	Y13.70448 	Z2.04263
N1631 	G01 	X3.17869 	Y13.70448 	Z2.00819
N1632 	G01 	X2.63058 	Y13.70448 	Z1.96905
N1633 	G01 	X2.08474 	Y13.70448 	Z1.92502
N1634 	G01 	X1.54119 	Y13.70448 	Z1.87593
N1635 	G01 	X1.00000 	Y13.70448 	Z1.82159

N1636 	G01 	X1.00000 	Y13.98527 	Z1.84479
N1637 	G01 	X1.54119 	Y13.98527 	Z1.89695
N1638 	G01 	X2.08474 	Y13.98527 	Z1.94401
N1639 	G01 	X2.63058 	Y13.98527 	Z1.98612
N1640 	G01 	X3.17869 	Y13.98527 	Z2.02348
N1641 	G01 	X3.72900 	Y13.98527 	Z2.05625
N1642 	G01 	X4.28147 	Y13.98527 	Z2.08460
N1643 	G01 	X4.83606 	Y13.98527 	Z2.10873
N1644 	G01 	X5.39270 	Y13.98527 	Z2.12879
N1645 	G01 	X5.95137 	Y13.98527 	Z2.14498
N1646 	G01 	X6.51200 	Y13.98527 	Z2.15745
N1647 	G01 	X7.07455 	Y13.98527 	Z2.16639
N1648 	G01 	X7.63898 	Y13.98527 	Z2.17197
N1649 	G01 	X8.20522 	Y13.98527 	Z2.17438
N1650 	G01 	X8.77325 	Y13.98527 	Z2.17377
N1651 	G01 	X9.34300 	Y13.98527 	Z2.17033
N1652 	G01 	X9.91443 	Y13.98527 	Z2.16424
N1653 	G01 	X10.48750 	Y13.98527 	Z2.15567
N1654 	G01 	X11.06214 	Y13.98527 	Z2.14479
N1655 	G01 	X11.63833 	Y13.98527 	Z2.13178
N1656 	G01 	X12.21600 	Y13.98527 	Z2.11682
N1657 	G01 	X12.79511 	Y13.98527 	Z2.10008
N1658 	G01 	X13.37562 	Y13.98527 	Z2.08174
N1659 	G01 	X13.95746 	Y13.98527 	Z2.06197
N1660 	G01 	X14.54061 	Y13.98527 	Z2.04094
N1661 	G01 	X15.12500 	Y13.98527 	Z2.01884
N1662 	G01 	X15.71059 	Y13.98527 	Z1.99584
N1663 	G01 	X16.29734 	Y13.98527 	Z1.97211
N1664 	G01 	X16.88518 	Y13.98527 	Z1.94783
N1665 	G01 	X17.47409 	Y13.98527 	Z1.92318
N1666 	G01 	X18.06400 	Y13.98527 	Z1.89833
N1667 	G01 	X18.65487 	Y13.98527 	Z1.87345
N1668 	G01 	X19.24666 	Y13.98527 	Z1.84872
N1669 	G01 	X19.83930 	Y13.98527 	Z1.82432
N1670 	G01 	X20.43277 	Y13.98527 	Z1.80042
N1671 	G01 	X21.02700 	Y13.98527 	Z1.77720
N1672 	G01 	X21.62195 	Y13.98527 	Z1.75483
N1673 	G01 	X22.21758 	Y13.98527 	Z1.73348
N1674 	G01 	X22.81382 	Y13.98527 	Z1.71335
N1675 	G01 	X23.41065 	Y13.98527 	Z1.69459
N1676 	G01 	X24.00800 	Y13.98527 	Z1.67738
N1677 	G01 	X24.60583 	Y13.98527 	Z1.66191
N1678 	G01 	X25.20410 	Y13.98527 	Z1.64834
N1679 	G01 	X25.80274 	Y13.98527 	Z1.63685
N1680 	G01 	X26.40173 	Y13.98527 	Z1.62761
N1681 	G01 	X27.00100 	Y13.98527 	Z1.62081
N1682 	G01 	X27.60051 	Y13.98527 	Z1.61662
N1683 	G01 	X28.20022 	Y13.98527 	Z1.61520
N1684 	G01 	X28.80006 	Y13.98527 	Z1.61675
N1685 	G01 	X29.40001 	Y13.98527 	Z1.62142
N1686 	G01 	X30.00000 	Y13.98527 	Z1.62941

N1687 	G01 	X30.00000 	Y14.26606 	Z1.64041
N1688 	G01 	X29.40001 	Y14.26606 	Z1.63200
N1689 	G01 	X28.80006 	Y14.26606 	Z1.62689
N1690 	G01 	X28.20022 	Y14.26606 	Z1.62488
N1691 	G01 	X27.60051 	Y14.26606 	Z1.62581
N1692 	G01 	X27.00100 	Y14.26606 	Z1.62951
N1693 	G01 	X26.40173 	Y14.26606 	Z1.63580
N1694 	G01 	X25.80274 	Y14.26606 	Z1.64451
N1695 	G01 	X25.20410 	Y14.26606 	Z1.65547
N1696 	G01 	X24.60583 	Y14.26606 	Z1.66851
N1697 	G01 	X24.00800 	Y14.26606 	Z1.68346
N1698 	G01 	X23.41065 	Y14.26606 	Z1.70014
N1699 	G01 	X22.81382 	Y14.26606 	Z1.71838
N1700 	G01 	X22.21758 	Y14.26606 	Z1.73801
N1701 	G01 	X21.62195 	Y14.26606 	Z1.75886
N1702 	G01 	X21.02700 	Y14.26606 	Z1.78075
N1703 	G01 	X20.43277 	Y14.26606 	Z1.80351
N1704 	G01 	X19.83930 	Y14.26606 	Z1.82698
N1705 	G01 	X19.24666 	Y14.26606 	Z1.85097
N1706 	G01 	X18.65487 	Y14.26606 	Z1.87532
N1707 	G01 	X18.06400 	Y14.26606 	Z1.89985
N1708 	G01 	X17.47409 	Y14.26606 	Z1.92440
N1709 	G01 	X16.88518 	Y14.26606 	Z1.94879
N1710 	G01 	X16.29734 	Y14.26606 	Z1.97284
N1711 	G01 	X15.71059 	Y14.26606 	Z1.99639
N1712 	G01 	X15.12500 	Y14.26606 	Z2.01926
N1713 	G01 	X14.54061 	Y14.26606 	Z2.04129
N1714 	G01 	X13.95746 	Y14.26606 	Z2.06229
N1715 	G01 	X13.37562 	Y14.26606 	Z2.08210
N1716 	G01 	X12.79511 	Y14.26606 	Z2.10054
N1717 	G01 	X12.21600 	Y14.26606 	Z2.11745
N1718 	G01 	X11.63833 	Y14.26606 	Z2.13265
N1719 	G01 	X11.06214 	Y14.26606 	Z2.14597
N1720 	G01 	X10.48750 	Y14.26606 	Z2.15723
N1721 	G01 	X9.91443 	Y14.26606 	Z2.16627
N1722 	G01 	X9.34300 	Y14.26606 	Z2.17291
N1723 	G01 	X8.77325 	Y14.26606 	Z2.17697
N1724 	G01 	X8.20522 	Y14.26606 	Z2.17830
N1725 	G01 	X7.63898 	Y14.26606 	Z2.17671
N1726 	G01 	X7.07455 	Y14.26606 	Z2.17204
N1727 	G01 	X6.51200 	Y14.26606 	Z2.16411
N1728 	G01 	X5.95137 	Y14.26606 	Z2.15274
N1729 	G01 	X5.39270 	Y14.26606 	Z2.13777
N1730 	G01 	X4.83606 	Y14.26606 	Z2.11903
N1731 	G01 	X4.28147 	Y14.26606 	Z2.09634
N1732 	G01 	X3.72900 	Y14.26606 	Z2.06953
N1733 	G01 	X3.17869 	Y14.26606 	Z2.03843
N1734 	G01 	X2.63058 	Y14.26606 	Z2.00287
N1735 	G01 	X2.08474 	Y14.26606 	Z1.96267
N1736 	G01 	X1.54119 	Y14.26606 	Z1.91766
N1737 	G01 	X1.00000 	Y14.26606 	Z1.86767

N1738 	G01 	X1.00000 	Y14.54685 	Z1.89023
N1739 	G01 	X1.54119 	Y14.54685 	Z1.93804
N1740 	G01 	X2.08474 	Y14.54685 	Z1.98100
N1741 	G01 	X2.63058 	Y14.54685 	Z2.01929
N1742 	G01 	X3.17869 	Y14.54685 	Z2.05306
N1743 	G01 	X3.72900 	Y14.54685 	Z2.08249
N1744 	G01 	X4.28147 	Y14.54685 	Z2.10774
N1745 	G01 	X4.83606 	Y14.54685 	Z2.12899
N1746 	G01 	X5.39270 	Y14.54685 	Z2.14641
N1747 	G01 	X5.95137 	Y14.54685 	Z2.16016
N1748 	G01 	X6.51200 	Y14.54685 	Z2.17041
N1749 	G01 	X7.07455 	Y14.54685 	Z2.17734
N1750 	G01 	X7.63898 	Y14.54685 	Z2.18110
N1751 	G01 	X8.20522 	Y14.54685 	Z2.18187
N1752 	G01 	X8.77325 	Y14.54685 	Z2.17982
N1753 	G01 	X9.34300 	Y14.54685 	Z2.17512
N1754 	G01 	X9.91443 	Y14.54685 	Z2.16793
N1755 	G01 	X10.48750 	Y14.54685 	Z2.15842
N1756 	G01 	X11.06214 	Y14.54685 	Z2.14677
N1757 	G01 	X11.63833 	Y14.54685 	Z2.13314
N1758 	G01 	X12.21600 	Y14.54685 	Z2.11770
N1759 	G01 	X12.79511 	Y14.54685 	Z2.10063
N1760 	G01 	X13.37562 	Y14.54685 	Z2.08208
N1761 	G01 	X13.95746 	Y14.54685 	Z2.06222
N1762 	G01 	X14.54061 	Y14.54685 	Z2.04124
N1763 	G01 	X15.12500 	Y14.54685 	Z2.01929
N1764 	G01 	X15.71059 	Y14.54685 	Z1.99654
N1765 	G01 	X16.29734 	Y14.54685 	Z1.97317
N1766 	G01 	X16.88518 	Y14.54685 	Z1.94933
N1767 	G01 	X17.47409 	Y14.54685 	Z1.92521
N1768 	G01 	X18.06400 	Y14.54685 	Z1.90097
N1769 	G01 	X18.65487 	Y14.54685 	Z1.87678
N1770 	G01 	X19.24666 	Y14.54685 	Z1.85280
N1771 	G01 	X19.83930 	Y14.54685 	Z1.82921
N1772 	G01 	X20.43277 	Y14.54685 	Z1.80618
N1773 	G01 	X21.02700 	Y14.54685 	Z1.78386
N1774 	G01 	X21.62195 	Y14.54685 	Z1.76245
N1775 	G01 	X22.21758 	Y14.54685 	Z1.74209
N1776 	G01 	X22.81382 	Y14.54685 	Z1.72296
N1777 	G01 	X23.41065 	Y14.54685 	Z1.70523
N1778 	G01 	X24.00800 	Y14.54685 	Z1.68907
N1779 	G01 	X24.60583 	Y14.54685 	Z1.67465
N1780 	G01 	X25.20410 	Y14.54685 	Z1.66214
N1781 	G01 	X25.80274 	Y14.54685 	Z1.65169
N1782 	G01 	X26.40173 	Y14.54685 	Z1.64349
N1783 	G01 	X27.00100 	Y14.54685 	Z1.63771
N1784 	G01 	X27.60051 	Y14.54685 	Z1.63450
N1785 	G01 	X28.20022 	Y14.54685 	Z1.63405
N1786 	G01 	X28.80006 	Y14.54685 	Z1.63652
N1787 	G01 	X29.40001 	Y14.54685 	Z1.64207
N1788 	G01 	X30.00000 	Y14.54685 	Z1.65088

N1789 	G01 	X30.00000 	Y14.82764 	Z1.66082
N1790 	G01 	X29.40001 	Y14.82764 	Z1.65161
N1791 	G01 	X28.80006 	Y14.82764 	Z1.64563
N1792 	G01 	X28.20022 	Y14.82764 	Z1.64272
N1793 	G01 	X27.60051 	Y14.82764 	Z1.64271
N1794 	G01 	X27.00100 	Y14.82764 	Z1.64543
N1795 	G01 	X26.40173 	Y14.82764 	Z1.65071
N1796 	G01 	X25.80274 	Y14.82764 	Z1.65841
N1797 	G01 	X25.20410 	Y14.82764 	Z1.66833
N1798 	G01 	X24.60583 	Y14.82764 	Z1.68033
N1799 	G01 	X24.00800 	Y14.82764 	Z1.69424
N1800 	G01 	X23.41065 	Y14.82764 	Z1.70988
N1801 	G01 	X22.81382 	Y14.82764 	Z1.72710
N1802 	G01 	X22.21758 	Y14.82764 	Z1.74573
N1803 	G01 	X21.62195 	Y14.82764 	Z1.76560
N1804 	G01 	X21.02700 	Y14.82764 	Z1.78655
N1805 	G01 	X20.43277 	Y14.82764 	Z1.80842
N1806 	G01 	X19.83930 	Y14.82764 	Z1.83103
N1807 	G01 	X19.24666 	Y14.82764 	Z1.85422
N1808 	G01 	X18.65487 	Y14.82764 	Z1.87783
N1809 	G01 	X18.06400 	Y14.82764 	Z1.90168
N1810 	G01 	X17.47409 	Y14.82764 	Z1.92563
N1811 	G01 	X16.88518 	Y14.82764 	Z1.94949
N1812 	G01 	X16.29734 	Y14.82764 	Z1.97310
N1813 	G01 	X15.71059 	Y14.82764 	Z1.99630
N1814 	G01 	X15.12500 	Y14.82764 	Z2.01893
N1815 	G01 	X14.54061 	Y14.82764 	Z2.04081
N1816 	G01 	X13.95746 	Y14.82764 	Z2.06178
N1817 	G01 	X13.37562 	Y14.82764 	Z2.08168
N1818 	G01 	X12.79511 	Y14.82764 	Z2.10033
N1819 	G01 	X12.21600 	Y14.82764 	Z2.11759
N1820 	G01 	X11.63833 	Y14.82764 	Z2.13327
N1821 	G01 	X11.06214 	Y14.82764 	Z2.14721
N1822 	G01 	X10.48750 	Y14.82764 	Z2.15925
N1823 	G01 	X9.91443 	Y14.82764 	Z2.16923
N1824 	G01 	X9.34300 	Y14.82764 	Z2.17697
N1825 	G01 	X8.77325 	Y14.82764 	Z2.18231
N1826 	G01 	X8.20522 	Y14.82764 	Z2.18508
N1827 	G01 	X7.63898 	Y14.82764 	Z2.18513
N1828 	G01 	X7.07455 	Y14.82764 	Z2.18228
N1829 	G01 	X6.51200 	Y14.82764 	Z2.17637
N1830 	G01 	X5.95137 	Y14.82764 	Z2.16723
N1831 	G01 	X5.39270 	Y14.82764 	Z2.15470
N1832 	G01 	X4.83606 	Y14.82764 	Z2.13861
N1833 	G01 	X4.28147 	Y14.82764 	Z2.11880
N1834 	G01 	X3.72900 	Y14.82764 	Z2.09510
N1835 	G01 	X3.17869 	Y14.82764 	Z2.06734
N1836 	G01 	X2.63058 	Y14.82764 	Z2.03536
N1837 	G01 	X2.08474 	Y14.82764 	Z1.99900
N1838 	G01 	X1.54119 	Y14.82764 	Z1.95809
N1839 	G01 	X1.00000 	Y14.82764 	Z1.91245

N1840 	G01 	X1.00000 	Y15.10843 	Z1.93433
N1841 	G01 	X1.54119 	Y15.10843 	Z1.97779
N1842 	G01 	X2.08474 	Y15.10843 	Z2.01665
N1843 	G01 	X2.63058 	Y15.10843 	Z2.05110
N1844 	G01 	X3.17869 	Y15.10843 	Z2.08128
N1845 	G01 	X3.72900 	Y15.10843 	Z2.10736
N1846 	G01 	X4.28147 	Y15.10843 	Z2.12951
N1847 	G01 	X4.83606 	Y15.10843 	Z2.14788
N1848 	G01 	X5.39270 	Y15.10843 	Z2.16264
N1849 	G01 	X5.95137 	Y15.10843 	Z2.17395
N1850 	G01 	X6.51200 	Y15.10843 	Z2.18197
N1851 	G01 	X7.07455 	Y15.10843 	Z2.18687
N1852 	G01 	X7.63898 	Y15.10843 	Z2.18881
N1853 	G01 	X8.20522 	Y15.10843 	Z2.18794
N1854 	G01 	X8.77325 	Y15.10843 	Z2.18444
N1855 	G01 	X9.34300 	Y15.10843 	Z2.17846
N1856 	G01 	X9.91443 	Y15.10843 	Z2.17017
N1857 	G01 	X10.48750 	Y15.10843 	Z2.15972
N1858 	G01 	X11.06214 	Y15.10843 	Z2.14729
N1859 	G01 	X11.63833 	Y15.10843 	Z2.13303
N1860 	G01 	X12.21600 	Y15.10843 	Z2.11710
N1861 	G01 	X12.79511 	Y15.10843 	Z2.09968
N1862 	G01 	X13.37562 	Y15.10843 	Z2.08091
N1863 	G01 	X13.95746 	Y15.10843 	Z2.06096
N1864 	G01 	X14.54061 	Y15.10843 	Z2.04000
N1865 	G01 	X15.12500 	Y15.10843 	Z2.01819
N1866 	G01 	X15.71059 	Y15.10843 	Z1.99568
N1867 	G01 	X16.29734 	Y15.10843 	Z1.97265
N1868 	G01 	X16.88518 	Y15.10843 	Z1.94925
N1869 	G01 	X17.47409 	Y15.10843 	Z1.92565
N1870 	G01 	X18.06400 	Y15.10843 	Z1.90200
N1871 	G01 	X18.65487 	Y15.10843 	Z1.87848
N1872 	G01 	X19.24666 	Y15.10843 	Z1.85524
N1873 	G01 	X19.83930 	Y15.10843 	Z1.83244
N1874 	G01 	X20.43277 	Y15.10843 	Z1.81025
N1875 	G01 	X21.02700 	Y15.10843 	Z1.78883
N1876 	G01 	X21.62195 	Y15.10843 	Z1.76834
N1877 	G01 	X22.21758 	Y15.10843 	Z1.74895
N1878 	G01 	X22.81382 	Y15.10843 	Z1.73081
N1879 	G01 	X23.41065 	Y15.10843 	Z1.71409
N1880 	G01 	X24.00800 	Y15.10843 	Z1.69895
N1881 	G01 	X24.60583 	Y15.10843 	Z1.68556
N1882 	G01 	X25.20410 	Y15.10843 	Z1.67407
N1883 	G01 	X25.80274 	Y15.10843 	Z1.66465
N1884 	G01 	X26.40173 	Y15.10843 	Z1.65746
N1885 	G01 	X27.00100 	Y15.10843 	Z1.65266
N1886 	G01 	X27.60051 	Y15.10843 	Z1.65042
N1887 	G01 	X28.20022 	Y15.10843 	Z1.65089
N1888 	G01 	X28.80006 	Y15.10843 	Z1.65425
N1889 	G01 	X29.40001 	Y15.10843 	Z1.66064
N1890 	G01 	X30.00000 	Y15.10843 	Z1.67024

N1891 	G01 	X30.00000 	Y15.38921 	Z1.67914
N1892 	G01 	X29.40001 	Y15.38921 	Z1.66916
N1893 	G01 	X28.80006 	Y15.38921 	Z1.66236
N1894 	G01 	X28.20022 	Y15.38921 	Z1.65857
N1895 	G01 	X27.60051 	Y15.38921 	Z1.65765
N1896 	G01 	X27.00100 	Y15.38921 	Z1.65942
N1897 	G01 	X26.40173 	Y15.38921 	Z1.66374
N1898 	G01 	X25.80274 	Y15.38921 	Z1.67044
N1899 	G01 	X25.20410 	Y15.38921 	Z1.67936
N1900 	G01 	X24.60583 	Y15.38921 	Z1.69035
N1901 	G01 	X24.00800 	Y15.38921 	Z1.70324
N1902 	G01 	X23.41065 	Y15.38921 	Z1.71787
N1903 	G01 	X22.81382 	Y15.38921 	Z1.73410
N1904 	G01 	X22.21758 	Y15.38921 	Z1.75175
N1905 	G01 	X21.62195 	Y15.38921 	Z1.77067
N1906 	G01 	X21.02700 	Y15.38921 	Z1.79070
N1907 	G01 	X20.43277 	Y15.38921 	Z1.81168
N1908 	G01 	X19.83930 	Y15.38921 	Z1.83345
N1909 	G01 	X19.24666 	Y15.38921 	Z1.85586
N1910 	G01 	X18.65487 	Y15.38921 	Z1.87874
N1911 	G01 	X18.06400 	Y15.38921 	Z1.90194
N1912 	G01 	X17.47409 	Y15.38921 	Z1.92529
N1913 	G01 	X16.88518 	Y15.38921 	Z1.94864
N1914 	G01 	X16.29734 	Y15.38921 	Z1.97183
N1915 	G01 	X15.71059 	Y15.38921 	Z1.99470
N1916 	G01 	X15.12500 	Y15.38921 	Z2.01708
N1917 	G01 	X14.54061 	Y15.38921 	Z2.03883
N1918 	G01 	X13.95746 	Y15.38921 	Z2.05978
N1919 	G01 	X13.37562 	Y15.38921 	Z2.07978
N1920 	G01 	X12.79511 	Y15.38921 	Z2.09866
N1921 	G01 	X12.21600 	Y15.38921 	Z2.11626
N1922 	G01 	X11.63833 	Y15.38921 	Z2.13243
N1923 	G01 	X11.06214 	Y15.38921 	Z2.14701
N1924 	G01 	X10.48750 	Y15.38921 	Z2.15984
N1925 	G01 	X9.91443 	Y15.38921 	Z2.17075
N1926 	G01 	X9.34300 	Y15.38921 	Z2.17960
N1927 	G01 	X8.77325 	Y15.38921 	Z2.18622
N1928 	G01 	X8.20522 	Y15.38921 	Z2.19045
N1929 	G01 	X7.63898 	Y15.38921 	Z2.19213
N1930 	G01 	X7.07455 	Y15.38921 	Z2.19111
N1931 	G01 	X6.51200 	Y15.38921 	Z2.18723
N1932 	G01 	X5.95137 	Y15.38921 	Z2.18032
N1933 	G01 	X5.39270 	Y15.38921 	Z2.17023
N1934 	G01 	X4.83606 	Y15.38921 	Z2.15680
N1935 	G01 	X4.28147 	Y15.38921 	Z2.13986
N1936 	G01 	X3.72900 	Y15.38921 	Z2.11927
N1937 	G01 	X3.17869 	Y15.38921 	Z2.09486
N1938 	G01 	X2.63058 	Y15.38921 	Z2.06647
N1939 	G01 	X2.08474 	Y15.38921 	Z2.03395
N1940 	G01 	X1.54119 	Y15.38921 	Z1.99713
N1941 	G01 	X1.00000 	Y15.38921 	Z1.95586

N1942 	G01 	X1.00000 	Y15.67000 	Z1.97702
N1943 	G01 	X1.54119 	Y15.67000 	Z2.01611
N1944 	G01 	X2.08474 	Y15.67000 	Z2.05089
N1945 	G01 	X2.63058 	Y15.67000 	Z2.08149
N1946 	G01 	X3.17869 	Y15.67000 	Z2.10809
N1947 	G01 	X3.72900 	Y15.67000 	Z2.13082
N1948 	G01 	X4.28147 	Y15.67000 	Z2.14986
N1949 	G01 	X4.83606 	Y15.67000 	Z2.16536
N1950 	G01 	X5.39270 	Y15.67000 	Z2.17746
N1951 	G01 	X5.95137 	Y15.67000 	Z2.18633
N1952 	G01 	X6.51200 	Y15.67000 	Z2.19213
N1953 	G01 	X7.07455 	Y15.67000 	Z2.19500
N1954 	G01 	X7.63898 	Y15.67000 	Z2.19511
N1955 	G01 	X8.20522 	Y15.67000 	Z2.19261
N1956 	G01 	X8.77325 	Y15.67000 	Z2.18765
N1957 	G01 	X9.34300 	Y15.67000 	Z2.18039
N1958 	G01 	X9.91443 	Y15.67000 	Z2.17099
N1959 	G01 	X10.48750 	Y15.67000 	Z2.15960
N1960 	G01 	X11.06214 	Y15.67000 	Z2.14638
N1961 	G01 	X11.63833 	Y15.67000 	Z2.13148
N1962 	G01 	X12.21600 	Y15.67000 	Z2.11507
N1963 	G01 	X12.79511 	Y15.67000 	Z2.09728
N1964 	G01 	X13.37562 	Y15.67000 	Z2.07829
N1965 	G01 	X13.95746 	Y15.67000 	Z2.05825
N1966 	G01 	X14.54061 	Y15.67000 	Z2.03730
N1967 	G01 	X15.12500 	Y15.67000 	Z2.01562
N1968 	G01 	X15.71059 	Y15.67000 	Z1.99334
N1969 	G01 	X16.29734 	Y15.67000 	Z1.97064
N1970 	G01 	X16.88518 	Y15.67000 	Z1.94766
N1971 	G01 	X17.47409 	Y15.67000 	Z1.92456
N1972 	G01 	X18.06400 	Y15.67000 	Z1.90150
N1973 	G01 	X18.65487 	Y15.67000 	Z1.87863
N1974 	G01 	X19.24666 	Y15.67000 	Z1.85610
N1975 	G01 	X19.83930 	Y15.67000 	Z1.83408
N1976 	G01 	X20.43277 	Y15.67000 	Z1.81272
N1977 	G01 	X21.02700 	Y15.67000 	Z1.79217
N1978 	G01 	X21.62195 	Y15.67000 	Z1.77259
N1979 	G01 	X22.21758 	Y15.67000 	Z1.75414
N1980 	G01 	X22.81382 	Y15.67000 	Z1.73696
N1981 	G01 	X23.41065 	Y15.67000 	Z1.72123
N1982 	G01 	X24.00800 	Y15.67000 	Z1.70709
N1983 	G01 	X24.60583 	Y15.67000 	Z1.69469
N1984 	G01 	X25.20410 	Y15.67000 	Z1.68420
N1985 	G01 	X25.80274 	Y15.67000 	Z1.67577
N1986 	G01 	X26.40173 	Y15.67000 	Z1.66956
N1987 	G01 	X27.00100 	Y15.67000 	Z1.66571
N1988 	G01 	X27.60051 	Y15.67000 	Z1.66440
N1989 	G01 	X28.20022 	Y15.67000 	Z1.66576
N1990 	G01 	X28.80006 	Y15.67000 	Z1.66996
N1991 	G01 	X29.40001 	Y15.67000 	Z1.67716
N1992 	G01 	X30.00000 	Y15.67000 	Z1.68750

N1993 	G01 	X30.00000 	Y15.95079 	Z1.69535
N1994 	G01 	X29.40001 	Y15.95079 	Z1.68465
N1995 	G01 	X28.80006 	Y15.95079 	Z1.67707
N1996 	G01 	X28.20022 	Y15.95079 	Z1.67246
N1997 	G01 	X27.60051 	Y15.95079 	Z1.67067
N1998 	G01 	X27.00100 	Y15.95079 	Z1.67154
N1999 	G01 	X26.40173 	Y15.95079 	Z1.67492
N2000 	G01 	X25.80274 	Y15.95079 	Z1.68066
N2001 	G01 	X25.20410 	Y15.95079 	Z1.68861
N2002 	G01 	X24.60583 	Y15.95079 	Z1.69861
N2003 	G01 	X24.00800 	Y15.95079 	Z1.71052
N2004 	G01 	X23.41065 	Y15.95079 	Z1.72417
N2005 	G01 	X22.81382 	Y15.95079 	Z1.73943
N2006 	G01 	X22.21758 	Y15.95079 	Z1.75613
N2007 	G01 	X21.62195 	Y15.95079 	Z1.77412
N2008 	G01 	X21.02700 	Y15.95079 	Z1.79325
N2009 	G01 	X20.43277 	Y15.95079 	Z1.81337
N2010 	G01 	X19.83930 	Y15.95079 	Z1.83433
N2011 	G01 	X19.24666 	Y15.95079 	Z1.85597
N2012 	G01 	X18.65487 	Y15.95079 	Z1.87814
N2013 	G01 	X18.06400 	Y15.95079 	Z1.90069
N2014 	G01 	X17.47409 	Y15.95079 	Z1.92347
N2015 	G01 	X16.88518 	Y15.95079 	Z1.94632
N2016 	G01 	X16.29734 	Y15.95079 	Z1.96909
N2017 	G01 	X15.71059 	Y15.95079 	Z1.99163
N2018 	G01 	X15.12500 	Y15.95079 	Z2.01379
N2019 	G01 	X14.54061 	Y15.95079 	Z2.03542
N2020 	G01 	X13.95746 	Y15.95079 	Z2.05636
N2021 	G01 	X13.37562 	Y15.95079 	Z2.07646
N2022 	G01 	X12.79511 	Y15.95079 	Z2.09556
N2023 	G01 	X12.21600 	Y15.95079 	Z2.11352
N2024 	G01 	X11.63833 	Y15.95079 	Z2.13019
N2025 	G01 	X11.06214 	Y15.95079 	Z2.14540
N2026 	G01 	X10.48750 	Y15.95079 	Z2.15902
N2027 	G01 	X9.91443 	Y15.95079 	Z2.17088
N2028 	G01 	X9.34300 	Y15.95079 	Z2.18083
N2029 	G01 	X8.77325 	Y15.95079 	Z2.18872
N2030 	G01 	X8.20522 	Y15.95079 	Z2.19441
N2031 	G01 	X7.63898 	Y15.95079 	Z2.19773
N2032 	G01 	X7.07455 	Y15.95079 	Z2.19854
N2033 	G01 	X6.51200 	Y15.95079 	Z2.19667
N2034 	G01 	X5.95137 	Y15.95079 	Z2.19199
N2035 	G01 	X5.39270 	Y15.95079 	Z2.18434
N2036 	G01 	X4.83606 	Y15.95079 	Z2.17356
N2037 	G01 	X4.28147 	Y15.95079 	Z2.15950
N2038 	G01 	X3.72900 	Y15.95079 	Z2.14201
N2039 	G01 	X3.17869 	Y15.95079 	Z2.12094
N2040 	G01 	X2.63058 	Y15.95079 	Z2.09614
N2041 	G01 	X2.08474 	Y15.95079 	Z2.06745
N2042 	G01 	X1.54119 	Y15.95079 	Z2.03472
N2043 	G01 	X1.00000 	Y15.95079 	Z1.99780

N2044 	G01 	X1.00000 	Y16.23158 	Z2.01821
N2045 	G01 	X1.54119 	Y16.23158 	Z2.05295
N2046 	G01 	X2.08474 	Y16.23158 	Z2.08364
N2047 	G01 	X2.63058 	Y16.23158 	Z2.11042
N2048 	G01 	X3.17869 	Y16.23158 	Z2.13343
N2049 	G01 	X3.72900 	Y16.23158 	Z2.15283
N2050 	G01 	X4.28147 	Y16.23158 	Z2.16877
N2051 	G01 	X4.83606 	Y16.23158 	Z2.18139
N2052 	G01 	X5.39270 	Y16.23158 	Z2.19085
N2053 	G01 	X5.95137 	Y16.23158 	Z2.19729
N2054 	G01 	X6.51200 	Y16.23158 	Z2.20086
N2055 	G01 	X7.07455 	Y16.23158 	Z2.20172
N2056 	G01 	X7.63898 	Y16.23158 	Z2.20000
N2057 	G01 	X8.20522 	Y16.23158 	Z2.19586
N2058 	G01 	X8.77325 	Y16.23158 	Z2.18945
N2059 	G01 	X9.34300 	Y16.23158 	Z2.18092
N2060 	G01 	X9.91443 	Y16.23158 	Z2.17042
N2061 	G01 	X10.48750 	Y16.23158 	Z2.15809
N2062 	G01 	X11.06214 	Y16.23158 	Z2.14408
N2063 	G01 	X11.63833 	Y16.23158 	Z2.12855
N2064 	G01 	X12.21600 	Y16.23158 	Z2.11164
N2065 	G01 	X12.79511 	Y16.23158 	Z2.09350
N2066 	G01 	X13.37562 	Y16.23158 	Z2.07428
N2067 	G01 	X13.95746 	Y16.23158 	Z2.05413
N2068 	G01 	X14.54061 	Y16.23158 	Z2.03319
N2069 	G01 	X15.12500 	Y16.23158 	Z2.01163
N2070 	G01 	X15.71059 	Y16.23158 	Z1.98958
N2071 	G01 	X16.29734 	Y16.23158 	Z1.96720
N2072 	G01 	X16.88518 	Y16.23158 	Z1.94463
N2073 	G01 	X17.47409 	Y16.23158 	Z1.92202
N2074 	G01 	X18.06400 	Y16.23158 	Z1.89953
N2075 	G01 	X18.65487 	Y16.23158 	Z1.87729
N2076 	G01 	X19.24666 	Y16.23158 	Z1.85547
N2077 	G01 	X19.83930 	Y16.23158 	Z1.83421
N2078 	G01 	X20.43277 	Y16.23158 	Z1.81365
N2079 	G01 	X21.02700 	Y16.23158 	Z1.79395
N2080 	G01 	X21.62195 	Y16.23158 	Z1.77526
N2081 	G01 	X22.21758 	Y16.23158 	Z1.75772
N2082 	G01 	X22.81382 	Y16.23158 	Z1.74149
N2083 	G01 	X23.41065 	Y16.23158 	Z1.72671
N2084 	G01 	X24.00800 	Y16.23158 	Z1.71354
N2085 	G01 	X24.60583 	Y16.23158 	Z1.70211
N2086 	G01 	X25.20410 	Y16.23158 	Z1.69258
N2087 	G01 	X25.80274 	Y16.23158 	Z1.68511
N2088 	G01 	X26.40173 	Y16.23158 	Z1.67983
N2089 	G01 	X27.00100 	Y16.23158 	Z1.67690
N2090 	G01 	X27.60051 	Y16.23158 	Z1.67646
N2091 	G01 	X28.20022 	Y16.23158 	Z1.67867
N2092 	G01 	X28.80006 	Y16.23158 	Z1.68368
N2093 	G01 	X29.40001 	Y16.23158 	Z1.69162
N2094 	G01 	X30.00000 	Y16.23158 	Z1.70266

N2095 	G01 	X30.00000 	Y16.51237 	Z1.70945
N2096 	G01 	X29.40001 	Y16.51237 	Z1.69809
N2097 	G01 	X28.80006 	Y16.51237 	Z1.68979
N2098 	G01 	X28.20022 	Y16.51237 	Z1.68440
N2099 	G01 	X27.60051 	Y16.51237 	Z1.68179
N2100 	G01 	X27.00100 	Y16.51237 	Z1.68180
N2101 	G01 	X26.40173 	Y16.51237 	Z1.68429
N2102 	G01 	X25.80274 	Y16.51237 	Z1.68912
N2103 	G01 	X25.20410 	Y16.51237 	Z1.69613
N2104 	G01 	X24.60583 	Y16.51237 	Z1.70519
N2105 	G01 	X24.00800 	Y16.51237 	Z1.71615
N2106 	G01 	X23.41065 	Y16.51237 	Z1.72885
N2107 	G01 	X22.81382 	Y16.51237 	Z1.74317
N2108 	G01 	X22.21758 	Y16.51237 	Z1.75894
N2109 	G01 	X21.62195 	Y16.51237 	Z1.77603
N2110 	G01 	X21.02700 	Y16.51237 	Z1.79429
N2111 	G01 	X20.43277 	Y16.51237 	Z1.81357
N2112 	G01 	X19.83930 	Y16.51237 	Z1.83373
N2113 	G01 	X19.24666 	Y16.51237 	Z1.85462
N2114 	G01 	X18.65487 	Y16.51237 	Z1.87610
N2115 	G01 	X18.06400 	Y16.51237 	Z1.89801
N2116 	G01 	X17.47409 	Y16.51237 	Z1.92023
N2117 	G01 	X16.88518 	Y16.51237 	Z1.94259
N2118 	G01 	X16.29734 	Y16.51237 	Z1.96496
N2119 	G01 	X15.71059 	Y16.51237 	Z1.98719
N2120 	G01 	X15.12500 	Y16.51237 	Z2.00913
N2121 	G01 	X14.54061 	Y16.51237 	Z2.03063
N2122 	G01 	X13.95746 	Y16.51237 	Z2.05156
N2123 	G01 	X13.37562 	Y16.51237 	Z2.07176
N2124 	G01 	X12.79511 	Y16.51237 	Z2.09109
N2125 	G01 	X12.21600 	Y16.51237 	Z2.10941
N2126 	G01 	X11.63833 	Y16.51237 	Z2.12657
N2127 	G01 	X11.06214 	Y16.51237 	Z2.14242
N2128 	G01 	X10.48750 	Y16.51237 	Z2.15682
N2129 	G01 	X9.91443 	Y16.51237 	Z2.16962
N2130 	G01 	X9.34300 	Y16.51237 	Z2.18067
N2131 	G01 	X8.77325 	Y16.51237 	Z2.18984
N2132 	G01 	X8.20522 	Y16.51237 	Z2.19697
N2133 	G01 	X7.63898 	Y16.51237 	Z2.20192
N2134 	G01 	X7.07455 	Y16.51237 	Z2.20454
N2135 	G01 	X6.51200 	Y16.51237 	Z2.20469
N2136 	G01 	X5.95137 	Y16.51237 	Z2.20223
N2137 	G01 	X5.39270 	Y16.51237 	Z2.19700
N2138 	G01 	X4.83606 	Y16.51237 	Z2.18886
N2139 	G01 	X4.28147 	Y16.51237 	Z2.17767
N2140 	G01 	X3.72900 	Y16.51237 	Z2.16328
N2141 	G01 	X3.17869 	Y16.51237 	Z2.14554
N2142 	G01 	X2.63058 	Y16.51237 	Z2.12431
N2143 	G01 	X2.08474 	Y16.51237 	Z2.09944
N2144 	G01 	X1.54119 	Y16.51237 	Z2.07079
N2145 	G01 	X1.00000 	Y16.51237 	Z2.03822

N2146 	G01 	X1.00000 	Y16.79316 	Z2.05782
N2147 	G01 	X1.54119 	Y16.79316 	Z2.08824
N2148 	G01 	X2.08474 	Y16.79316 	Z2.11485
N2149 	G01 	X2.63058 	Y16.79316 	Z2.13781
N2150 	G01 	X3.17869 	Y16.79316 	Z2.15726
N2151 	G01 	X3.72900 	Y16.79316 	Z2.17334
N2152 	G01 	X4.28147 	Y16.79316 	Z2.18620
N2153 	G01 	X4.83606 	Y16.79316 	Z2.19596
N2154 	G01 	X5.39270 	Y16.79316 	Z2.20278
N2155 	G01 	X5.95137 	Y16.79316 	Z2.20681
N2156 	G01 	X6.51200 	Y16.79316 	Z2.20817
N2157 	G01 	X7.07455 	Y16.79316 	Z2.20701
N2158 	G01 	X7.63898 	Y16.79316 	Z2.20349
N2159 	G01 	X8.20522 	Y16.79316 	Z2.19773
N2160 	G01 	X8.77325 	Y16.79316 	Z2.18988
N2161 	G01 	X9.34300 	Y16.79316 	Z2.18008
N2162 	G01 	X9.91443 	Y16.79316 	Z2.16848
N2163 	G01 	X10.48750 	Y16.79316 	Z2.15521
N2164 	G01 	X11.06214 	Y16.79316 	Z2.14042
N2165 	G01 	X11.63833 	Y16.79316 	Z2.12426
N2166 	G01 	X12.21600 	Y16.79316 	Z2.10686
N2167 	G01 	X12.79511 	Y16.79316 	Z2.08836
N2168 	G01 	X13.37562 	Y16.79316 	Z2.06892
N2169 	G01 	X13.95746 	Y16.79316 	Z2.04866
N2170 	G01 	X14.54061 	Y16.79316 	Z2.02774
N2171 	G01 	X15.12500 	Y16.79316 	Z2.00629
N2172 	G01 	X15.71059 	Y16.79316 	Z1.98446
N2173 	G01 	X16.29734 	Y16.79316 	Z1.96239
N2174 	G01 	X16.88518 	Y16.79316 	Z1.94023
N2175 	G01 	X17.47409 	Y16.79316 	Z1.91810
N2176 	G01 	X18.06400 	Y16.79316 	Z1.89617
N2177 	G01 	X18.65487 	Y16.79316 	Z1.87456
N2178 	G01 	X19.24666 	Y16.79316 	Z1.85342
N2179 	G01 	X19.83930 	Y16.79316 	Z1.83290
N2180 	G01 	X20.43277 	Y16.79316 	Z1.81313
N2181 	G01 	X21.02700 	Y16.79316 	Z1.79426
N2182 	G01 	X21.62195 	Y16.79316 	Z1.77643
N2183 	G01 	X22.21758 	Y16.79316 	Z1.75978
N2184 	G01 	X22.81382 	Y16.79316 	Z1.74446
N2185 	G01 	X23.41065 	Y16.79316 	Z1.73061
N2186 	G01 	X24.00800 	Y16.79316 	Z1.71836
N2187 	G01 	X24.60583 	Y16.79316 	Z1.70787
N2188 	G01 	X25.20410 	Y16.79316 	Z1.69927
N2189 	G01 	X25.80274 	Y16.79316 	Z1.69270
N2190 	G01 	X26.40173 	Y16.79316 	Z1.68832
N2191 	G01 	X27.00100 	Y16.79316 	Z1.68625
N2192 	G01 	X27.60051 	Y16.79316 	Z1.68665
N2193 	G01 	X28.20022 	Y16.79316 	Z1.68966
N2194 	G01 	X28.80006 	Y16.79316 	Z1.69541
N2195 	G01 	X29.40001 	Y16.79316 	Z1.70405
N2196 	G01 	X30.00000 	Y16.79316 	Z1.71572

N2197 	G01 	X30.00000 	Y17.07395 	Z1.72146
N2198 	G01 	X29.40001 	Y17.07395 	Z1.70950
N2199 	G01 	X28.80006 	Y17.07395 	Z1.70053
N2200 	G01 	X28.20022 	Y17.07395 	Z1.69443
N2201 	G01 	X27.60051 	Y17.07395 	Z1.69105
N2202 	G01 	X27.00100 	Y17.07395 	Z1.69026
N2203 	G01 	X26.40173 	Y17.07395 	Z1.69191
N2204 	G01 	X25.80274 	Y17.07395 	Z1.69587
N2205 	G01 	X25.20410 	Y17.07395 	Z1.70199
N2206 	G01 	X24.60583 	Y17.07395 	Z1.71014
N2207 	G01 	X24.00800 	Y17.07395 	Z1.72019
N2208 	G01 	X23.41065 	Y17.07395 	Z1.73198
N2209 	G01 	X22.81382 	Y17.07395 	Z1.74539
N2210 	G01 	X22.21758 	Y17.07395 	Z1.76026
N2211 	G01 	X21.62195 	Y17.07395 	Z1.77648
N2212 	G01 	X21.02700 	Y17.07395 	Z1.79388
N2213 	G01 	X20.43277 	Y17.07395 	Z1.81235
N2214 	G01 	X19.83930 	Y17.07395 	Z1.83173
N2215 	G01 	X19.24666 	Y17.07395 	Z1.85189
N2216 	G01 	X18.65487 	Y17.07395 	Z1.87269
N2217 	G01 	X18.06400 	Y17.07395 	Z1.89399
N2218 	G01 	X17.47409 	Y17.07395 	Z1.91565
N2219 	G01 	X16.88518 	Y17.07395 	Z1.93753
N2220 	G01 	X16.29734 	Y17.07395 	Z1.95950
N2221 	G01 	X15.71059 	Y17.07395 	Z1.98142
N2222 	G01 	X15.12500 	Y17.07395 	Z2.00314
N2223 	G01 	X14.54061 	Y17.07395 	Z2.02453
N2224 	G01 	X13.95746 	Y17.07395 	Z2.04544
N2225 	G01 	X13.37562 	Y17.07395 	Z2.06575
N2226 	G01 	X12.79511 	Y17.07395 	Z2.08531
N2227 	G01 	X12.21600 	Y17.07395 	Z2.10398
N2228 	G01 	X11.63833 	Y17.07395 	Z2.12162
N2229 	G01 	X11.06214 	Y17.07395 	Z2.13810
N2230 	G01 	X10.48750 	Y17.07395 	Z2.15327
N2231 	G01 	X9.91443 	Y17.07395 	Z2.16700
N2232 	G01 	X9.34300 	Y17.07395 	Z2.17915
N2233 	G01 	X8.77325 	Y17.07395 	Z2.18957
N2234 	G01 	X8.20522 	Y17.07395 	Z2.19814
N2235 	G01 	X7.63898 	Y17.07395 	Z2.20470
N2236 	G01 	X7.07455 	Y17.07395 	Z2.20913
N2237 	G01 	X6.51200 	Y17.07395 	Z2.21128
N2238 	G01 	X5.95137 	Y17.07395 	Z2.21102
N2239 	G01 	X5.39270 	Y17.07395 	Z2.20820
N2240 	G01 	X4.83606 	Y17.07395 	Z2.20268
N2241 	G01 	X4.28147 	Y17.07395 	Z2.19434
N2242 	G01 	X3.72900 	Y17.07395 	Z2.18302
N2243 	G01 	X3.17869 	Y17.07395 	Z2.16860
N2244 	G01 	X2.63058 	Y17.07395 	Z2.15092
N2245 	G01 	X2.08474 	Y17.07395 	Z2.12986
N2246 	G01 	X1.54119 	Y17.07395 	Z2.10527
N2247 	G01 	X1.00000 	Y17.07395 	Z2.07701

N2248 	G01 	X1.00000 	Y17.35474 	Z2.09578
N2249 	G01 	X1.54119 	Y17.35474 	Z2.12189
N2250 	G01 	X2.08474 	Y17.35474 	Z2.14446
N2251 	G01 	X2.63058 	Y17.35474 	Z2.16363
N2252 	G01 	X3.17869 	Y17.35474 	Z2.17953
N2253 	G01 	X3.72900 	Y17.35474 	Z2.19231
N2254 	G01 	X4.28147 	Y17.35474 	Z2.20210
N2255 	G01 	X4.83606 	Y17.35474 	Z2.20903
N2256 	G01 	X5.39270 	Y17.35474 	Z2.21324
N2257 	G01 	X5.95137 	Y17.35474 	Z2.21486
N2258 	G01 	X6.51200 	Y17.35474 	Z2.21403
N2259 	G01 	X7.07455 	Y17.35474 	Z2.21089
N2260 	G01 	X7.63898 	Y17.35474 	Z2.20557
N2261 	G01 	X8.20522 	Y17.35474 	Z2.19820
N2262 	G01 	X8.77325 	Y17.35474 	Z2.18893
N2263 	G01 	X9.34300 	Y17.35474 	Z2.17788
N2264 	G01 	X9.91443 	Y17.35474 	Z2.16519
N2265 	G01 	X10.48750 	Y17.35474 	Z2.15100
N2266 	G01 	X11.06214 	Y17.35474 	Z2.13545
N2267 	G01 	X11.63833 	Y17.35474 	Z2.11866
N2268 	G01 	X12.21600 	Y17.35474 	Z2.10078
N2269 	G01 	X12.79511 	Y17.35474 	Z2.08194
N2270 	G01 	X13.37562 	Y17.35474 	Z2.06227
N2271 	G01 	X13.95746 	Y17.35474 	Z2.04191
N2272 	G01 	X14.54061 	Y17.35474 	Z2.02100
N2273 	G01 	X15.12500 	Y17.35474 	Z1.99967
N2274 	G01 	X15.71059 	Y17.35474 	Z1.97806
N2275 	G01 	X16.29734 	Y17.35474 	Z1.95630
N2276 	G01 	X16.88518 	Y17.35474 	Z1.93453
N2277 	G01 	X17.47409 	Y17.35474 	Z1.91288
N2278 	G01 	X18.06400 	Y17.35474 	Z1.89149
N2279 	G01 	X18.65487 	Y17.35474 	Z1.87049
N2280 	G01 	X19.24666 	Y17.35474 	Z1.85003
N2281 	G01 	X19.83930 	Y17.35474 	Z1.83023
N2282 	G01 	X20.43277 	Y17.35474 	Z1.81123
N2283 	G01 	X21.02700 	Y17.35474 	Z1.79316
N2284 	G01 	X21.62195 	Y17.35474 	Z1.77617
N2285 	G01 	X22.21758 	Y17.35474 	Z1.76039
N2286 	G01 	X22.81382 	Y17.35474 	Z1.74595
N2287 	G01 	X23.41065 	Y17.35474 	Z1.73298
N2288 	G01 	X24.00800 	Y17.35474 	Z1.72163
N2289 	G01 	X24.60583 	Y17.35474 	Z1.71203
N2290 	G01 	X25.20410 	Y17.35474 	Z1.70431
N2291 	G01 	X25.80274 	Y17.35474 	Z1.69862
N2292 	G01 	X26.40173 	Y17.35474 	Z1.69507
N2293 	G01 	X27.00100 	Y17.35474 	Z1.69382
N2294 	G01 	X27.60051 	Y17.35474 	Z1.69500
N2295 	G01 	X28.20022 	Y17.35474 	Z1.69874
N2296 	G01 	X28.80006 	Y17.35474 	Z1.70517
N2297 	G01 	X29.40001 	Y17.35474 	Z1.71444
N2298 	G01 	X30.00000 	Y17.35474 	Z1.72668

N2299 	G01 	X30.00000 	Y17.63553 	Z1.73136
N2300 	G01 	X29.40001 	Y17.63553 	Z1.71888
N2301 	G01 	X28.80006 	Y17.63553 	Z1.70932
N2302 	G01 	X28.20022 	Y17.63553 	Z1.70257
N2303 	G01 	X27.60051 	Y17.63553 	Z1.69849
N2304 	G01 	X27.00100 	Y17.63553 	Z1.69695
N2305 	G01 	X26.40173 	Y17.63553 	Z1.69782
N2306 	G01 	X25.80274 	Y17.63553 	Z1.70096
N2307 	G01 	X25.20410 	Y17.63553 	Z1.70624
N2308 	G01 	X24.60583 	Y17.63553 	Z1.71353
N2309 	G01 	X24.00800 	Y17.63553 	Z1.72270
N2310 	G01 	X23.41065 	Y17.63553 	Z1.73362
N2311 	G01 	X22.81382 	Y17.63553 	Z1.74615
N2312 	G01 	X22.21758 	Y17.63553 	Z1.76017
N2313 	G01 	X21.62195 	Y17.63553 	Z1.77553
N2314 	G01 	X21.02700 	Y17.63553 	Z1.79211
N2315 	G01 	X20.43277 	Y17.63553 	Z1.80978
N2316 	G01 	X19.83930 	Y17.63553 	Z1.82841
N2317 	G01 	X19.24666 	Y17.63553 	Z1.84785
N2318 	G01 	X18.65487 	Y17.63553 	Z1.86799
N2319 	G01 	X18.06400 	Y17.63553 	Z1.88868
N2320 	G01 	X17.47409 	Y17.63553 	Z1.90980
N2321 	G01 	X16.88518 	Y17.63553 	Z1.93121
N2322 	G01 	X16.29734 	Y17.63553 	Z1.95279
N2323 	G01 	X15.71059 	Y17.63553 	Z1.97440
N2324 	G01 	X15.12500 	Y17.63553 	Z1.99590
N2325 	G01 	X14.54061 	Y17.63553 	Z2.01717
N2326 	G01 	X13.95746 	Y17.63553 	Z2.03807
N2327 	G01 	X13.37562 	Y17.63553 	Z2.05848
N2328 	G01 	X12.79511 	Y17.63553 	Z2.07825
N2329 	G01 	X12.21600 	Y17.63553 	Z2.09727
N2330 	G01 	X11.63833 	Y17.63553 	Z2.11538
N2331 	G01 	X11.06214 	Y17.63553 	Z2.13248
N2332 	G01 	X10.48750 	Y17.63553 	Z2.14841
N2333 	G01 	X9.91443 	Y17.63553 	Z2.16305
N2334 	G01 	X9.34300 	Y17.63553 	Z2.17627
N2335 	G01 	X8.77325 	Y17.63553 	Z2.18794
N2336 	G01 	X8.20522 	Y17.63553 	Z2.19792
N2337 	G01 	X7.63898 	Y17.63553 	Z2.20608
N2338 	G01 	X7.07455 	Y17.63553 	Z2.21229
N2339 	G01 	X6.51200 	Y17.63553 	Z2.21642
N2340 	G01 	X5.95137 	Y17.63553 	Z2.21834
N2341 	G01 	X5.39270 	Y17.63553 	Z2.21790
N2342 	G01 	X4.83606 	Y17.63553 	Z2.21499
N2343 	G01 	X4.28147 	Y17.63553 	Z2.20947
N2344 	G01 	X3.72900 	Y17.63553 	Z2.20121
N2345 	G01 	X3.17869 	Y17.63553 	Z2.19007
N2346 	G01 	X2.63058 	Y17.63553 	Z2.17592
N2347 	G01 	X2.08474 	Y17.63553 	Z2.15864
N2348 	G01 	X1.54119 	Y17.63553 	Z2.13808
N2349 	G01 	X1.00000 	Y17.63553 	Z2.11412

N2350 	G01 	X1.00000 	Y17.91632 	Z2.13201
N2351 	G01 	X1.54119 	Y17.91632 	Z2.15384
N2352 	G01 	X2.08474 	Y17.91632 	Z2.17239
N2353 	G01 	X2.63058 	Y17.91632 	Z2.18780
N2354 	G01 	X3.17869 	Y17.91632 	Z2.20019
N2355 	G01 	X3.72900 	Y17.91632 	Z2.20970
N2356 	G01 	X4.28147 	Y17.91632 	Z2.21645
N2357 	G01 	X4.83606 	Y17.91632 	Z2.22057
N2358 	G01 	X5.39270 	Y17.91632 	Z2.22219
N2359 	G01 	X5.95137 	Y17.91632 	Z2.22144
N2360 	G01 	X6.51200 	Y17.91632 	Z2.21845
N2361 	G01 	X7.07455 	Y17.91632 	Z2.21334
N2362 	G01 	X7.63898 	Y17.91632 	Z2.20625
N2363 	G01 	X8.20522 	Y17.91632 	Z2.19730
N2364 	G01 	X8.77325 	Y17.91632 	Z2.18662
N2365 	G01 	X9.34300 	Y17.91632 	Z2.17434
N2366 	G01 	X9.91443 	Y17.91632 	Z2.16059
N2367 	G01 	X10.48750 	Y17.91632 	Z2.14550
N2368 	G01 	X11.06214 	Y17.91632 	Z2.12919
N2369 	G01 	X11.63833 	Y17.91632 	Z2.11179
N2370 	G01 	X12.21600 	Y17.91632 	Z2.09344
N2371 	G01 	X12.79511 	Y17.91632 	Z2.07426
N2372 	G01 	X13.37562 	Y17.91632 	Z2.05438
N2373 	G01 	X13.95746 	Y17.91632 	Z2.03393
N2374 	G01 	X14.54061 	Y17.91632 	Z2.01304
N2375 	G01 	X15.12500 	Y17.91632 	Z1.99183
N2376 	G01 	X15.71059 	Y17.91632 	Z1.97043
N2377 	G01 	X16.29734 	Y17.91632 	Z1.94898
N2378 	G01 	X16.88518 	Y17.91632 	Z1.92760
N2379 	G01 	X17.47409 	Y17.91632 	Z1.90642
N2380 	G01 	X18.06400 	Y17.91632 	Z1.88557
N2381 	G01 	X18.65487 	Y17.91632 	Z1.86518
N2382 	G01 	X19.24666 	Y17.91632 	Z1.84537
N2383 	G01 	X19.83930 	Y17.91632 	Z1.82627
N2384 	G01 	X20.43277 	Y17.91632 	Z1.80802
N2385 	G01 	X21.02700 	Y17.91632 	Z1.79074
